!!!!SEGMENT: s-uu--vok-mus-i-hs-22-15_forster-kaspar--redemptor-deus.krn
!!!cenid: 16xx:1705
!!!COM: Förster, Kaspar
!!!COM-rismID: pe30006147
!!!CDT: ~1616-1673/02/02
!!!CNT: German
!!!OTL: Redemptor Deus
!!!PDT:
!!!AGN:
!!!YEC: Copyright 2022 Narodowy Instytut Fryderyka Chopina (https://polishscores.org)
!!!YEM: License CC-BY-4.0 (https://creativecommons.org/licenses/by/4.0)
!!!SMS-siglum: S-Uu
!!!SMS-shelfmark: Vok. mus. i hs. 22:15
!!!SMS-shelfwork: W
!!!SMS-variant:
!!!SMS-altvar:
!!!NIFC-rismSourceID: 190008736
!!!NIFC-rismChildID: 190008736
!!!NIFC-islandoraID: none
!!!URL-pdf-islandora:
!!!URL-scan: https://www2.musik.uu.se/duben/presentationSource1.php?Select_Dnr=855 @EN{Scan on Academica} @PL{Skany w zewnętrznej bibliotece cyfrowej}
!!!IIIF:
!!!ONB-nifc: UWAGA: poszczególne partie dostępne po kliknięciu w „browse part”. Informacje nt stron tytułowych w opisie na stronie lub na RISM.
!!!AIN: 1 organ 2 soprn 2 violn
!!!key: e
**kern	**fba	**kern	**dynam	**kern	**dynam	**kern	**text	**mod-text	**kern	**text	**mod-text
*	*	*group2	*	*group2	*	*group1	*	*	*group1	*	*
*part5	*	*part4	*	*part3	*	*part2	*	*	*part1	*	*
*staff5	*	*staff4	*	*staff3	*	*staff2	*	*	*staff1	*	*
*I"Baſſo Continúo	*	*I"Violino II	*	*I"Violino imo	*	*I"Canto 2do	*	*	*I"Canto 1mo	*	*
*mI"Basso continuo	*	*mI"Violino II	*	*mI"Violino I	*	*mI"Soprano II	*	*	*mI"Soprano I	*	*
*I'bc	*	*I'vl 2	*	*I'vl 1	*	*I'S 2	*	*	*I'S 1	*	*
*Iorgan	*	*Ivioln	*	*Ivioln	*	*Isoprn	*	*	*Isoprn	*	*
*ICklav	*	*ICstr	*	*ICstr	*	*ICvox	*	*	*ICvox	*	*
*IGcont	*	*	*	*	*	*	*	*	*	*	*
*clefF4	*	*clefG2	*	*clefG2	*	*clefC1	*	*	*clefC1	*	*
*mclefF4	*	*mclefG2	*	*mclefG2	*	*mclefG2	*	*	*mclefG2	*	*
*k[]	*	*k[]	*	*k[]	*	*k[]	*	*	*k[]	*	*
*mk[f#]	*	*mk[f#]	*	*mk[f#]	*	*mk[f#]	*	*	*mk[f#]	*	*
*e:	*	*e:	*	*e:	*	*e:	*	*	*e:	*	*
*M2/1	*	*M2/1	*	*M2/1	*	*M2/1	*	*	*M2/1	*	*
*met(C|)	*	*met(C|)	*	*met(C|)	*	*met(C|)	*	*	*met(C|)	*	*
=1-	=1-	=1-	=1-	=1-	=1-	=1-	=1-	=1-	=1-	=1-	=1-
!	!	!	!	!	!	!LO:TX:a:t=jj:mod=	!	!	!LO:TX:a:t=9:mod=	!	!
[1E	-	1.g	.	4r	.	00r	.	.	00r	.	.
.	.	.	.	2b/	.	.	.	.	.	.	.
.	.	.	.	4e/	.	.	.	.	.	.	.
2E]	6	.	.	2.cc\	.	.	.	.	.	.	.
!	!	!LO:TX:t=P:problem:kreska pseudotaktowa	!	!	!	!	!	!	!	!	!
2F#X\	-5r	[2a/	.	.	.	.	.	.	.	.	.
!	!	!	!	!LO:TX:t=P:problem:kreska pseudotaktowa	!	!	!	!	!	!	!
.	.	.	.	4b/	.	.	.	.	.	.	.
=2-	=2-	=2-	=2-	=2-	=2-	=2-	=2-	=2-	=2-	=2-	=2-
2G\	9:8	4a/]	.	2.b/	.	.	.	.	.	.	.
.	.	8g/L	.	.	.	.	.	.	.	.	.
.	.	8f#X/J	.	.	.	.	.	.	.	.	.
2c\	7:6	2e/	.	.	.	.	.	.	.	.	.
.	.	.	.	4a/	.	.	.	.	.	.	.
!LO:TX:t=P:problem:kreska pseudotaktowa	!LO:MO:mod=7&colon;6&colon;#5 4&colon;3	!	!	!	!	!	!	!	!	!	!
1B	7:6:#5r 4:3	4d#X/	.	4.a/	.	.	.	.	.	.	.
.	.	2e/	.	.	.	.	.	.	.	.	.
.	.	.	.	8g/	.	.	.	.	.	.	.
!	!	!	!	!LO:TX:t=P:problem:kreska pseudotaktowa	!	!	!	!	!	!	!
.	.	.	.	2f#X/	.	.	.	.	.	.	.
!	!	!LO:TX:t=P:problem:kreska pseudotaktowa	!	!	!	!	!	!	!	!	!
.	.	4d#X/	.	.	.	.	.	.	.	.	.
=3-	=3-	=3-	=3-	=3-	=3-	=3-	=3-	=3-	=3-	=3-	=3-
2c\	6	2e/	.	4r	.	00r	.	.	00r	.	.
.	.	.	.	4a/	.	.	.	.	.	.	.
2B\	3:6	4dny/	.	4.b/	.	.	.	.	.	.	.
.	.	2g/	.	.	.	.	.	.	.	.	.
.	.	.	.	8dd\	.	.	.	.	.	.	.
2A\	7:6	.	.	2cc\	.	.	.	.	.	.	.
.	.	4f#X/	.	.	.	.	.	.	.	.	.
!LO:TX:t=P:problem:kreska pseudotaktowa	!	!	!	!	!	!	!	!	!	!	!
2G\	.	8g/L	.	8b\L	.	.	.	.	.	.	.
.	.	8a/J	.	8cc\	.	.	.	.	.	.	.
.	.	8b\L	.	8dd\	.	.	.	.	.	.	.
!	!	!LO:TX:t=P:problem:kreska pseudotaktowa	!	!LO:TX:t=P:problem:kreska pseudotaktowa	!	!	!	!	!	!	!
.	.	8cc#X\J	.	8ee\J	.	.	.	.	.	.	.
=4-	=4-	=4-	=4-	=4-	=4-	=4-	=4-	=4-	=4-	=4-	=4-
2D/	#	8dd\L	.	8ff#X\L	.	.	.	.	.	.	.
.	.	8ee\	.	8gg\	.	.	.	.	.	.	.
.	.	8ff#X\	.	8aa\	.	.	.	.	.	.	.
.	.	8gg\J	.	8bb\J	.	.	.	.	.	.	.
2AA/	-	8aa\L	.	8ccc\L	.	.	.	.	.	.	.
.	.	8gg\	.	8bb\	.	.	.	.	.	.	.
.	.	8ff#X\	.	8aa\	.	.	.	.	.	.	.
!	!	!LO:TX:t=P:problem:kreska pseudotaktowa	!	!LO:TX:t=P:problem:kreska pseudotaktowa	!	!	!	!	!	!	!
.	.	8ee\J	.	8gg\J	.	.	.	.	.	.	.
4BB/	5	4dd#X\	.	4ff#X\	.	.	.	.	.	.	.
4GG/	#	4b/	.	8r	.	.	.	.	.	.	.
.	.	.	.	8bb\	.	.	.	.	.	.	.
!LO:TX:t=P:problem:kreska pseudotaktowa	!	!	!	!	!	!	!	!	!	!	!
2AA/	#	8cc#X\L	.	4.aa\	.	.	.	.	.	.	.
.	.	8dd#X\J	.	.	.	.	.	.	.	.	.
!	!	!LO:TX:t=P:problem:kreska pseudotaktowa	!	!	!	!	!	!	!	!	!
.	.	4ee\	.	.	.	.	.	.	.	.	.
!	!	!	!	!LO:TX:t=P:problem:kreska pseudotaktowa	!	!	!	!	!	!	!
.	.	.	.	8gg\	.	.	.	.	.	.	.
*	*	*custos:dd	*	*custos:ff	*	*	*	*	*	*	*
!	!	!LO:LB:g=original	!	!LO:LB:g=original	!	!	!	!	!	!	!
=5-	=5-	=5-	=5-	=5-	=5-	=5-	=5-	=5-	=5-	=5-	=5-
1BB	#:# 3:4:3	4dd#X\	.	2.ff#X\	.	0r	.	.	1r	.	.
.	.	2ee\	.	.	.	.	.	.	.	.	.
.	.	4dd#X\	.	4ff#\	.	.	.	.	.	.	.
!LO:TX:t=P:problem:kreska pseudotaktowa	!	!	!	!	!	!	!	!	!	!	!
1E	-	2ee\	.	2gg\	.	.	.	.	2r	.	.
.	.	2r	.	2r	.	.	.	.	2b\	Re-	Re-
=6-	=6-	=6-	=6-	=6-	=6-	=6-	=6-	=6-	=6-	=6-	=6-
!	!	!LO:TX:b:t=Red&colon;:mod=	!	!LO:TX:b:t=Red:mod=	!	!	!	!	!	!	!
!	!	!LO:TX:a:t=10:mod=	!	!LO:TX:a:t=10:mod=	!	!LO:TX:t=P:problem:kreska pseudotaktowa	!	!	!	!	!
2.E\	-	00r	.	00r	.	1r	.	.	4.b\	-dem-	-dem-
.	.	.	.	.	.	.	.	.	8e/	-ptor	-ptor
!	!	!	!	!	!	!	!	!	!LO:TX:t=P:problem:kreska pseudotaktowa	!	!
.	.	.	.	.	.	.	.	.	2cc\	De-	De-
4F#X\	.	.	.	.	.	.	.	.	.	.	.
!LO:TX:t=P:problem:kreska pseudotaktowa	!	!	!	!	!	!	!	!	!	!	!
1G	.	.	.	.	.	2r	.	.	2b\	-ús,	-us,
.	.	.	.	.	.	4r	.	.	4r	.	.
.	.	.	.	.	.	8g/	Qúi	Qui	8b\	qúi	qui
!	!	!	!	!	!	!LO:TX:t=P:problem:kreska pseudotaktowa	!	!	!	!	!
.	.	.	.	.	.	8g/	es	es	8b\	es	es
*custos:d	*	*	*	*	*	*	*	*	*	*	*
!LO:LB:g=original	!	!	!	!	!	!	!	!	!	!	!
=7-	=7-	=7-	=7-	=7-	=7-	=7-	=7-	=7-	=7-	=7-	=7-
4d\	#	.	.	.	.	4f#X/	vi-	vi-	4a\	vi-	vi-
4B\	# 3	.	.	.	.	8d#X/	-ta	-ta	8b\	-ta	-ta
.	.	.	.	.	.	8d#/	vi-	vi-	8b\	vi-	vi-
!LO:TX:t=P:problem:kreska pseudotaktowa	!	!	!	!	!	!	!	!	!	!	!
2c\	7:6	.	.	.	.	4.e/	-úen-	-ven-	4.b\	-úen-	-ven-
!	!	!	!	!	!	!LO:TX:t=P:problem:kreska pseudotaktowa	!	!	!LO:TX:t=P:problem:kreska pseudotaktowa	!	!
.	.	.	.	.	.	8e/	-ti-	-ti-	8a\	-ti-	-ti-
4B\	# 5	.	.	.	.	4d#X/	-úm	-um	4b\	-úm,	-um
4BB/	.	.	.	.	.	8r	.	.	8r	.	.
.	.	.	.	.	.	8b\	et	et	8dd\	et	et
4C/	6:5	.	.	.	.	8a\	ſa-	ſa-	8cc\	Sa-	sa-
.	.	.	.	.	.	8g/	-l(us)	-lus	8b\	-l(us)	-lus
!LO:TX:t=P:problem:kreska pseudotaktowa	!	!	!	!	!	!	!	!	!	!	!
4C#X/	.	.	.	.	.	8g/	mo-	mo-	8b\	mo-	mo-
!	!	!	!	!	!	!LO:TX:t=P:problem:kreska pseudotaktowa	!	!	!	!	!
.	.	.	.	.	.	8g/	-ri-	-ri-	8a\	-ri-	-ri-
=8-	=8-	=8-	=8-	=8-	=8-	=8-	=8-	=8-	=8-	=8-	=8-
2D/	4:3	00r	.	00r	.	4.g/	-en-	-en-	4.a\	-en-	-en-
.	.	.	.	.	.	8f#X/	-ti-	-ti-	8a\	-ti-	-ti-
!	!	!	!	!	!	!LO:TX:t=P:problem:kreska pseudotaktowa	!	!	!LO:TX:t=P:problem:kreska pseudotaktowa	!	!
2GG/	.	.	.	.	.	2g/	-úm	-um,	2b\	-úm	-um,
*	*	*	*	*	*	*custos:b	*	*	*	*	*
!	!	!	!	!	!	!LO:LB:g=original	!	!	!	!	!
2G\	.	.	.	.	.	4r	.	.	1r	.	.
.	.	.	.	.	.	8b\	qúi	qui	.	.	.
.	.	.	.	.	.	8b\	es	es	.	.	.
4A\	#	.	.	.	.	4cc#X\	vi-	vi-	.	.	.
!LO:TX:t=P:problem:kreska pseudotaktowa	!	!	!	!	!	!	!	!	!	!	!
4B\	#	.	.	.	.	8dd#X\	-ta	-ta	.	.	.
!	!	!	!	!	!	!LO:TX:t=P:problem:kreska pseudotaktowa	!	!	!	!	!
.	.	.	.	.	.	8dd#\	vi-	vi-	.	.	.
*	*	*	*	*	*	*	*	*	*custos:g	*	*
!	!	!	!	!	!	!	!	!	!LO:LB:g=original	!	!
=9-	=9-	=9-	=9-	=9-	=9-	=9-	=9-	=9-	=9-	=9-	=9-
2c\	.	.	.	.	.	8.ee\	-úen-	-ven-	2r	.	.
.	.	.	.	.	.	16ee\	-ti-	-ti-	.	.	.
.	.	.	.	.	.	4ee\	-úm	-um,	.	.	.
(2c\	.	.	.	.	.	4r	.	.	4r	.	.
.	.	.	.	.	.	8e/	qúi	qui	8g/	qúi	qui
!	!	!	!	!	!	!LO:TX:t=P:problem:kreska pseudotaktowa	!	!	!LO:TX:t=P:problem:kreska pseudotaktowa	!	!
.	.	.	.	.	.	8e/	es	es	8g/	es	es
4c\)	6 4	.	.	.	.	4f#X/	vi-	vi-	4a\	vi-	vi-
4B\	6	.	.	.	.	8g/	-ta	-ta	8b\	-ta	-ta
.	.	.	.	.	.	8g/	vi-	vi-	8b\	vi-	vi-
4A\	.	.	.	.	.	4a\	-úen-	-ven-	4.cc\	-úen-	-ven-
!LO:TX:t=P:problem:kreska pseudotaktowa	!	!	!	!	!	!LO:TX:t=P:problem:kreska pseudotaktowa	!	!	!	!	!
4d\	7	.	.	.	.	4f#X/	-ti-	-ti-	.	.	.
!	!	!	!	!	!	!	!	!	!LO:TX:t=P:problem:kreska pseudotaktowa	!	!
.	.	.	.	.	.	.	.	.	8cc\	-ti-	-ti-
=10-	=10-	=10-	=10-	=10-	=10-	=10-	=10-	=10-	=10-	=10-	=10-
!	!	!LO:TX:t=P:problem:kreska pseudotaktowa	!	!LO:TX:t=P:problem:kreska pseudotaktowa	!	!	!	!	!	!	!
2G\	.	0r	.	0r	.	4g/	-úm,	-um	4b\	-úm,	-um
.	.	.	.	.	.	8r	.	.	8r	.	.
.	.	.	.	.	.	8g/	et	et	8b\	et	et
2A\	# 6	.	.	.	.	4.f#X/	ſa-	ſa-	4.a\	ſa-	ſa-
!	!	!	!	!	!	!LO:TX:t=P:problem:kreska pseudotaktowa	!	!	!LO:TX:t=P:problem:kreska pseudotaktowa	!	!
.	.	.	.	.	.	8e/	-l(us)	-lus	8a\	-l(us)	-lus
!LO:TX:t=P:problem:kreska pseudotaktowa	!	!	!	!	!	!	!	!	!	!	!
1B	7:6 3:4:3 #:#	.	.	.	.	4d#X/	mo-	mo-	4.a\	mo-	mo-
.	.	.	.	.	.	4e/	-ri-	-ri-	.	.	.
.	.	.	.	.	.	.	.	.	8g/	-ri-	-ri-
.	.	.	.	.	.	4.e/	-en-	-en-	4.f#X/	-en-	-en-
!	!	!	!	!	!	!LO:TX:t=P:problem:kreska pseudotaktowa	!	!	!	!	!
.	.	.	.	.	.	8d#X/	-ti-	-ti-	8f#/	-ti-	-ti-
*	*	*	*	*	*	*custos:e	*	*	*	*	*
!	!	!	!	!	!	!LO:LB:g=original	!	!	!	!	!
=11-	=11-	=11-	=11-	=11-	=11-	=11-	=11-	=11-	=11-	=11-	=11-
2.c\	#6 4	4r	.	4r	.	2e/	-úm	-um,	2e/	-úm	-um,
.	.	8ee\L	.	8gg\L	.	.	.	.	.	.	.
.	.	8ee\J	.	8gg\J	.	.	.	.	.	.	.
.	.	4ffny\	.	4aa\	.	2r	.	.	2r	.	.
!LO:TX:t=P:problem:kreska pseudotaktowa	!	!LO:TX:t=P:problem:kreska pseudotaktowa	!	!LO:TX:t=P:problem:kreska pseudotaktowa	!	!	!	!	!	!	!
4B\	.	4gg\	.	4bb\	.	.	.	.	.	.	.
*custos:A	*	*	*	*	*	*	*	*	*	*	*
!LO:LB:g=original	!	!	!	!	!	!LO:TX:a:t=5:mod=	!	!	!LO:TX:b:t=5:mod=	!	!
4Fny\ 4A	.	4aa\	.	4.ccc\	.	00r	.	.	00r	.	.
4d\	7	4ff#X\	.	.	.	.	.	.	.	.	.
.	.	.	.	8ccc\	.	.	.	.	.	.	.
!LO:TX:t=P:problem:kreska pseudotaktowa	!	!	!	!	!	!	!	!	!	!	!
2G\	.	4gg\	.	4bb\	.	.	.	.	.	.	.
.	.	8ddny\L	.	8bb\L	.	.	.	.	.	.	.
!	!	!LO:TX:t=P:problem:kreska pseudotaktowa	!	!LO:TX:t=P:problem:kreska pseudotaktowa	!	!	!	!	!	!	!
.	.	8dd\J	.	8bb\J	.	.	.	.	.	.	.
=12-	=12-	=12-	=12-	=12-	=12-	=12-	=12-	=12-	=12-	=12-	=12-
2Cny/	6:5	4ccny\	.	4aa\	.	.	.	.	.	.	.
.	.	4b/	.	4gg\	.	.	.	.	.	.	.
2D/	4:3	4.a/	.	4.gg\	.	.	.	.	.	.	.
!	!	!LO:TX:t=P:problem:kreska pseudotaktowa	!	!LO:TX:t=P:problem:kreska pseudotaktowa	!	!	!	!	!	!	!
.	.	8a/	.	8ff#X\	.	.	.	.	.	.	.
2.G\	6 4	4b/	.	4gg\	.	.	.	.	.	.	.
.	.	8b/L	.	8dd\L	.	.	.	.	.	.	.
.	.	8b/J	.	8dd\J	.	.	.	.	.	.	.
.	.	4cc#X\	.	4ee\	.	.	.	.	.	.	.
!LO:TX:t=P:problem:kreska pseudotaktowa	!	!LO:TX:t=P:problem:kreska pseudotaktowa	!	!LO:TX:t=P:problem:kreska pseudotaktowa	!	!	!	!	!	!	!
4F#X\	6	4dd\	.	4ff#X\	.	.	.	.	.	.	.
=13-	=13-	=13-	=13-	=13-	=13-	=13-	=13-	=13-	=13-	=13-	=13-
!	!	!	!	!	!	!LO:TX:t=P:problem:kreska pseudotaktowa	!	!	!LO:TX:t=P:problem:kreska pseudotaktowa	!	!
!	!	!	!	!	!	!LO:MO:null:mod=0r	!	!	!LO:MO:null:mod=0r	!	!
4E\	.	4ee\	.	4.gg\	.	.	.	.	.	.	.
4A\	7	4cc#X\	.	.	.	.	.	.	.	.	.
.	.	.	.	8ff#X\	.	.	.	.	.	.	.
*	*	*	*	*custos:ff	*	*	*	*	*	*	*
!	!	!	!	!LO:LB:g=original	!	!	!	!	!	!	!
2D/	#	4dd\	.	4ff#X\	.	.	.	.	.	.	.
.	.	8dd\L	.	8aa\L	.	.	.	.	.	.	.
!	!	!LO:TX:t=P:problem:kreska pseudotaktowa	!	!	!	!	!	!	!	!	!
!	!	!	!	!LO:TX:t=P:problem:kreska pseudotaktowa	!	!	!	!	!	!	!
.	.	8cc#\J	.	8aa\J	.	.	.	.	.	.	.
*	*	*custos:b	*	*	*	*	*	*	*	*	*
!	!	!LO:LB:g=original	!	!	!	!LO:MO:mod=.	!	!	!LO:MO:mod=.	!	!
4G\	.	8b\L	.	4.gg\	.	1r	.	.	1r	.	.
.	.	8cc#\J	.	.	.	.	.	.	.	.	.
4D/	.	2dd\	.	.	.	.	.	.	.	.	.
.	.	.	.	8ff#\	.	.	.	.	.	.	.
!LO:TX:t=P:problem:kreska pseudotaktowa	!	!	!	!	!	!	!	!	!	!	!
2A\	4:3	.	.	4.ee\	.	.	.	.	.	.	.
.	.	4cc#X\	.	.	.	.	.	.	.	.	.
.	.	.	.	8ee\	.	.	.	.	.	.	.
=14-	=14-	=14-	=14-	=14-	=14-	=14-	=14-	=14-	=14-	=14-	=14-
2D\	#	2dd\	.	2ff#X\	.	4r	.	.	4r	.	.
.	.	.	.	.	.	4f#X/	et	et	4a\	et	et
2G\	.	4r	.	4r	.	4g/	ſa-	ſa-	4b\	ſa-	ſa-
!	!	!LO:TX:t=P:problem:kreska pseudotaktowa	!	!LO:TX:t=P:problem:kreska pseudotaktowa	!	!LO:TX:t=P:problem:kreska pseudotaktowa	!	!	!LO:TX:t=P:problem:kreska pseudotaktowa	!	!
.	.	4b/	.	4dd\	.	4g/	-l(us)	-lus,	4b\	-l(us)	-lus,
*	*	*	*	*	*	*	*	*	*custos:g	*	*
!	!	!	!	!	!	!	!	!	!LO:LB:g=original	!	!
2C/	.	4ccny\	.	4ee\	.	4r	.	.	4r	.	.
.	.	8cc\L	.	8ee\L	.	8r	.	.	8r	.	.
.	.	8cc\J	.	8gg\J	.	8e/	et	et	8g/	et	et
!LO:TX:t=P:problem:kreska pseudotaktowa	!	!LO:SIC:o=2cc\	!	!LO:TX:t=P:problem:kreska pseudotaktowa	!	!	!	!	!	!	!
[2AA/	.	[2cc\	.	[2aa\	.	4.a\	ſa-	ſa-	4.cc\	Sa-	sa-
!	!	!	!	!	!	!LO:TX:t=P:problem:kreska pseudotaktowa	!	!	!LO:TX:t=P:problem:kreska pseudotaktowa	!	!
.	.	.	.	.	.	8g/	-l(us)	-lus	8b\	-lús	-lus
=15-	=15-	=15-	=15-	=15-	=15-	=15-	=15-	=15-	=15-	=15-	=15-
!	!	!LO:SIC:o=1cc	!	!	!	!	!	!	!	!	!
!	!	!LO:TX:t=P:problem:kreska pseudotaktowa	!	!	!	!	!	!	!	!	!
1AA/]	7:8 6\:5	1cc]	.	4aa\]	.	2f#X/	mo-	mo-	2a\	mo-	mo-
.	.	.	.	4bb\	.	.	.	.	.	.	.
!	!	!	!	!LO:TX:t=P:problem:kreska pseudotaktowa	!	!	!	!	!	!	!
.	.	.	.	[2ccc\	.	2e/	-ri-	-ri-	2g/	-ri-	-ri-
!LO:TX:t=P:problem:kreska pseudotaktowa	!	!	!	!	!	!	!	!	!	!	!
1BB	4:3	2r	.	4ccc\]	.	2e/	-en-	-en-	2.f#X/	-en-	-en-
.	.	.	.	4bb\	.	.	.	.	.	.	.
.	.	2b/	.	4.bb\	.	2d#X/	-ti-	-ti-	.	.	.
.	.	.	.	.	.	.	.	.	4f#/	-ti-	-ti-
.	.	.	.	8aa\	.	.	.	.	.	.	.
=16-	=16-	=16-	=16-	=16-	=16-	=16-	=16-	=16-	=16-	=16-	=16-
!	!	!	!	!LO:TX:t=P:problem:kreska pseudotaktowa	!	!	!	!	!LO:TX:t=P:problem:kreska pseudotaktowa	!	!
1E	#	1b	.	1gg#X	.	1e	-úm,	-um,	1g#X	-úm,	-um,
!	!	!LO:TX:a:t=6:mod=	!	!LO:TX:a:t=5:mod=	!	!LO:TX:t=P:problem:kreska pseudotaktowa	!	!	!	!	!
[1E	.	00r	.	00r	.	1r	.	.	4r	.	.
.	.	.	.	.	.	.	.	.	2b\	Spes	spes
.	.	.	.	.	.	.	.	.	8b\	mi-	mi-
.	.	.	.	.	.	.	.	.	8b\	-ſe-	-ſe-
*custos:E	*	*	*	*	*	*	*	*	*	*	*
!LO:LB:g=original	!	!	!	!	!	!	!	!	!	!	!
=17-	=17-	=17-	=17-	=17-	=17-	=17-	=17-	=17-	=17-	=17-	=17-
1E]	.	.	.	.	.	4r	.	.	2e/	-ro-	-ro-
.	.	.	.	.	.	2ee\	Spes	spes	.	.	.
.	.	.	.	.	.	.	.	.	4e/	-rúm	-rum,
.	.	.	.	.	.	8ee\	mi-	mi-	4r	.	.
!	!	!	!	!	!	!LO:TX:t=P:problem:kreska pseudotaktowa	!	!	!	!	!
.	.	.	.	.	.	8ee\	-ſe-	-ſe-	.	.	.
!LO:TX:t=P:problem:kreska pseudotaktowa	!	!	!	!	!	!	!	!	!LO:TX:t=P:problem:kreska pseudotaktowa	!	!
1F#X	6	.	.	.	.	2a\	-ro-	-ro-	1r	.	.
.	.	.	.	.	.	8a\	-rúm	-rum,	.	.	.
.	.	.	.	.	.	8a\	da	da	.	.	.
.	.	.	.	.	.	8ddny\	mi-	mi-	.	.	.
!	!	!	!	!	!	!LO:TX:t=P:problem:kreska pseudotaktowa	!	!	!	!	!
.	.	.	.	.	.	8ccny\	-hi	-hi	.	.	.
*	*	*	*	*	*	*custos:b	*	*	*	*	*
!	!	!	!	!	!	!LO:LB:g=original	!	!	!	!	!
=18-	=18-	=18-	=18-	=18-	=18-	=18-	=18-	=18-	=18-	=18-	=18-
2G\	.	.	.	.	.	8b\L	ve-	ve-	8r	.	.
.	.	.	.	.	.	16dd\L	.	.	8d/	da	da
.	.	.	.	.	.	16cc\JJ	.	.	.	.	.
.	.	.	.	.	.	16b\LL	-ni-	-ni-	8gny/	mi-	mi-
.	.	.	.	.	.	16g\	.	.	.	.	.
.	.	.	.	.	.	16a\	.	.	8fny/	-hi	-hi
.	.	.	.	.	.	16b\JJ	.	.	.	.	.
!LO:SIC:v:o=2BB/	!	!	!	!	!	!	!	!	!	!	!
2C/	.	.	.	.	.	8cc\	-am	-am	8e/L	ve-	ve-
.	.	.	.	.	.	8g/	da	da	16g/L	.	.
.	.	.	.	.	.	.	.	.	16f/JJ	.	.
.	.	.	.	.	.	8cc\	mi-	mi-	16e/LL	-ni-	-ni-
.	.	.	.	.	.	.	.	.	16c/	.	.
!	!	!	!	!	!	!LO:TX:t=P:problem:kreska pseudotaktowa	!	!	!	!	!
.	.	.	.	.	.	8b\	-hi	-hi	16d/	.	.
!	!	!	!	!	!	!	!	!	!LO:TX:t=P:problem:kreska pseudotaktowa	!	!
.	.	.	.	.	.	.	.	.	16e/JJ	.	.
*	*	*	*	*	*	*	*	*	*custos:f	*	*
!	!	!	!	!	!	!	!	!	!LO:LB:g=original	!	!
4FF/	.	1r	.	1r	.	4a\	ve-	ve-	4f/	-am,	-am
4Fny\	.	.	.	.	.	8a\	-ni-	-ni-	8f/	di-	di-
.	.	.	.	.	.	8a\	-am	-am	8f/	-li-	-li-
!LO:TX:t=P:problem:kreska pseudotaktowa	!LO:MO:mod=#6	!	!	!	!	!	!	!	!	!	!
2G\	6#r	.	.	.	.	4.g/	de-	di-	4e/	-cto-	-cto-
.	.	.	.	.	.	.	.	.	8e/	-rúm	-rum
!	!	!	!	!	!	!LO:TX:t=P:problem:kreska pseudotaktowa	!	!	!LO:TX:t=P:problem:kreska pseudotaktowa	!	!
.	.	.	.	.	.	8fny/	-li-	-li-	8d/	me-	me-
=19-	=19-	=19-	=19-	=19-	=19-	=19-	=19-	=19-	=19-	=19-	=19-
!	!	!LO:TX:t=P:problem:kreska pseudotaktowa	!	!	!	!	!	!	!	!	!
2A\	5:6 3:4	1r	.	2r	.	4e/	-cto-	-cto-	4c#X/	-o-	-o-
.	.	.	.	.	.	8f/	-rúm	-rum	8d/	-rúm	-rum
.	.	.	.	.	.	8f/	me-	me-	8d/	me-	me-
2AA/	4:3	.	.	8r	.	2e/	-o-	-o-	(>4.d/	-o-	-o-
.	.	.	.	8ee\L	.	.	.	.	.	.	.
.	.	.	.	8aa\	.	.	.	.	.	.	.
!	!	!	!	!LO:TX:t=P:problem:kreska pseudotaktowa	!	!	!	!	!	!	!
.	.	.	.	8ggny\J	.	.	.	.	8c#X/)	.	.
*	*	*	*	*custos:ff	*	*	*	*	*	*	*
!	!	!LO:MO:mod=!null:null	!	!	!	!	!	!	!	!	!
!	!	!LO:N:vis=8	!	!LO:LB:g=original	!	!	!	!	!	!	!
2D/	#	4r	.	8ff#X\L	.	4f#X/	-rúm	-rum.	4d/	-rúm	-rum.
.	.	.	.	16aa\L	.	.	.	.	.	.	.
.	.	.	.	16gg\JJ	.	.	.	.	.	.	.
.	.	8a\L	.	16ff#X\LL	.	4r	.	.	4r	.	.
.	.	.	.	16dd\	.	.	.	.	.	.	.
.	.	16dd\L	.	16ee\	.	.	.	.	.	.	.
!	!	!	!	!LO:TX:t=P:problem:# above	!	!	!	!	!	!	!
.	.	16cc\JJ	.	16ff#X\JJi	.	.	.	.	.	.	.
4GG/	.	8b\L	.	8gg\L	.	2r	.	.	2r	.	.
.	.	16dd\L	.	8dd\	.	.	.	.	.	.	.
.	.	16cc\JJ	.	.	.	.	.	.	.	.	.
!LO:TX:t=P:problem:kreska pseudotaktowa	!	!	!	!	!	!	!	!	!	!	!
4G\	.	16b/LL	.	8gg\	.	.	.	.	.	.	.
.	.	16g/	.	.	.	.	.	.	.	.	.
!	!	!	!	!LO:TX:t=P:problem:kreska pseudotaktowa	!	!	!	!	!	!	!
.	.	16a/	.	8ff#\J	.	.	.	.	.	.	.
!	!	!LO:TX:t=P:problem:kreska pseudotaktowa	!	!	!	!	!	!	!	!	!
.	.	16b/JJ	.	.	.	.	.	.	.	.	.
=20-	=20-	=20-	=20-	=20-	=20-	=20-	=20-	=20-	=20-	=20-	=20-
!	!	!	!	!	!	!LO:TX:t=P:problem:kreska pseudotaktowa	!	!	!LO:TX:t=P:problem:kreska pseudotaktowa	!	!
2C/	.	8cc/L	.	8ee\L	.	0r	.	.	0r	.	.
.	.	8g/	.	16gg\L	.	.	.	.	.	.	.
.	.	.	.	16ffny\JJ	.	.	.	.	.	.	.
.	.	8cc/	.	16ee\LL	.	.	.	.	.	.	.
.	.	.	.	16cc\	.	.	.	.	.	.	.
.	.	8b/J	.	16dd\	.	.	.	.	.	.	.
.	.	.	.	16ee\JJ	.	.	.	.	.	.	.
4FF/	.	4a/	.	4ff\	.	.	.	.	.	.	.
4F\	.	8a/L	.	8ff\L	.	.	.	.	.	.	.
!	!	!LO:TX:t=P:problem:kreska pseudotaktowa	!	!LO:TX:t=P:problem:kreska pseudotaktowa	!	!	!	!	!	!	!
.	.	8a/J	.	8ff\J	.	.	.	.	.	.	.
2G\	6:5	4.g/	.	4.ee\	.	.	.	.	.	.	.
.	.	8fny/	.	8dd\	.	.	.	.	.	.	.
*	*	*custos:e	*	*	*	*	*	*	*	*	*
!	!	!LO:LB:g=original	!	!	!	!	!	!	!	!	!
4A\	#	4e/	.	4cc#X\	.	.	.	.	.	.	.
!LO:TX:t=P:problem:kreska pseudotaktowa	!	!	!	!	!	!	!	!	!	!	!
4D/	-	8f/L	.	2dd\	.	.	.	.	.	.	.
!	!	!LO:TX:t=P:problem:kreska pseudotaktowa	!	!	!	!	!	!	!	!	!
.	.	8f/J	.	.	.	.	.	.	.	.	.
=21-	=21-	=21-	=21-	=21-	=21-	=21-	=21-	=21-	=21-	=21-	=21-
2A\	4:3	16e/LL	.	.	.	8r	.	.	2r	.	.
.	.	16d/	.	.	.	.	.	.	.	.	.
.	.	16e/	.	.	.	8e/	da	Da	.	.	.
.	.	16f/JJ	.	.	.	.	.	.	.	.	.
.	.	4e/	.	4cc#X\	.	8a\	mi-	mi-	.	.	.
.	.	.	.	.	.	8g/	-hi	-hi	.	.	.
!	!	!	!	!	!	!LO:TX:t=P:problem:# below	!	!	!	!	!
2D/	.	2f#X/	.	2dd\	.	8f#X/L	ve-	ve-	8r	.	.
.	.	.	.	.	.	16a/L	.	.	8a\	da	Da
.	.	.	.	.	.	16g/JJ	.	.	.	.	.
.	.	.	.	.	.	16f#/LL	-ni-	-ni-	8dd\	mi-	mi-
!	!	!	!	!	!	!LO:TX:t=P:problem:# below	!	!	!	!	!
!	!	!	!	!	!	!LO:SIC:v:o=16d#X/	!	!	!	!	!
.	.	.	.	.	.	16d/	.	.	.	.	.
!	!	!	!	!	!	!	!	!	!LO:TX:t=P:problem:kreska pseudotaktowa	!	!
.	.	.	.	.	.	16e/	.	.	8cc\	-hi	-hi
!	!	!	!	!	!	!LO:TX:t=P:problem:kreska pseudotaktowa	!	!	!	!	!
!	!	!	!	!	!	!LO:TX:t=P:problem:# below	!	!	!	!	!
.	.	.	.	.	.	16f#X/JJ	.	.	.	.	.
*	*	*	*	*	*	*custos:g	*	*	*	*	*
!	!	!	!	!	!	!LO:LB:g=original	!	!	!	!	!
4GG/	.	0r	.	0r	.	8g/	-am	-am,	8b\L	ve-	ve-
!	!	!	!	!	!	!LO:SIC:v:o=8d#/	!	!	!	!	!
.	.	.	.	.	.	8d/	d[a]	da	16dd\L	.	.
.	.	.	.	.	.	.	.	.	16cc\JJ	.	.
4G\	.	.	.	.	.	8g/	mi-	mi-	16b\LL	-ni-	-ni-
.	.	.	.	.	.	.	.	.	16g\	.	.
.	.	.	.	.	.	8f#/	-hi	-hi	16a\	.	.
.	.	.	.	.	.	.	.	.	16b\JJ	.	.
!LO:TX:t=P:problem:kreska pseudotaktowa	!	!	!	!	!	!	!	!	!	!	!
2C/	5:6	.	.	.	.	8e/	da	da	8cc\	-am	-am,
.	.	.	.	.	.	8e/	da	da	8g/	da	da
.	.	.	.	.	.	8a\	mi-	mi-	8cc\	mi-	mi-
!	!	!	!	!	!	!LO:TX:t=P:problem:kreska pseudotaktowa	!	!	!LO:TX:t=P:problem:kreska pseudotaktowa	!	!
.	.	.	.	.	.	8g/	-hi	-hi	8b\	-hi	-hi
*custos:D	*	*	*	*	*	*	*	*	*	*	*
!LO:LB:g=original	!	!	!	!	!	!	!	!	!LO:LB:g=original	!	!
=22-	=22-	=22-	=22-	=22-	=22-	=22-	=22-	=22-	=22-	=22-	=22-
!	!	!LO:TX:t=P:problem:kreska pseudotaktowa	!	!LO:TX:t=P:problem:kreska pseudotaktowa	!	!	!	!	!	!	!
4D/	#	.	.	.	.	8f#X/	ve-	ve-	8a\	ve-	ve-
.	.	.	.	.	.	16f#/	-ni-	-ni-	16a\	-ni-	-ni-
.	.	.	.	.	.	16f#/	-am	-am	16a\	-am	-am
4BB/	6	.	.	.	.	8g\	di-	di-	8dd\	di-	di-
.	.	.	.	.	.	8f#/	-li-	-li-	8dd\	-li-	-li-
2C/	.	.	.	.	.	8e/L	-cto-	-cto-	4cc\	-cto-	-cto-
.	.	.	.	.	.	8f#/J	.	.	.	.	.
.	.	.	.	.	.	8g/	-rúm	-rum	8cc\	-rúm	-rum
!	!	!	!	!	!	!LO:TX:t=P:problem:kreska pseudotaktowa	!	!	!LO:TX:t=P:problem:kreska pseudotaktowa	!	!
.	.	.	.	.	.	8g/	me-	me-	8b\	me-	me-
2D/	4:3	8r	.	2r	.	(>4.g/	-o-	-o-	2a\	-o-	-o-
.	.	8a\L	.	.	.	.	.	.	.	.	.
.	.	8dd\	.	.	.	.	.	.	.	.	.
.	.	8cc\J	.	.	.	8f#X/)	.	.	.	.	.
!LO:TX:t=P:problem:kreska pseudotaktowa	!	!	!	!	!	!	!	!	!	!	!
2G\	5:6	8b\L	.	8r	.	4g/	-rúm	-rum.	4b\	-rúm	-rum.
.	.	16dd\L	.	8dd\L	.	.	.	.	.	.	.
.	.	16cc\JJ	.	.	.	.	.	.	.	.	.
.	.	16b/LL	.	8gg\	.	4r	.	.	4r	.	.
.	.	16g/	.	.	.	.	.	.	.	.	.
!	!	!	!	!LO:TX:t=P:problem:kreska pseudotaktowa	!	!	!	!	!	!	!
.	.	16a/	.	8ff\J	.	.	.	.	.	.	.
!	!	!LO:TX:t=P:problem:kreska pseudotaktowa	!	!	!	!	!	!	!	!	!
.	.	16b/JJ	.	.	.	.	.	.	.	.	.
=23-	=23-	=23-	=23-	=23-	=23-	=23-	=23-	=23-	=23-	=23-	=23-
!	!	!	!	!	!	!LO:TX:t=P:problem:kreska pseudotaktowa	!	!	!LO:TX:t=P:problem:kreska pseudotaktowa	!	!
2C/	.	8cc/L	.	8ee\L	.	0r	.	.	0r	.	.
.	.	8g/	.	16gg\L	.	.	.	.	.	.	.
.	.	.	.	16ff\JJ	.	.	.	.	.	.	.
.	.	8cc/	.	16ee\LL	.	.	.	.	.	.	.
.	.	.	.	16ccny\	.	.	.	.	.	.	.
.	.	8b/J	.	16dd\	.	.	.	.	.	.	.
.	.	.	.	16ee\JJ	.	.	.	.	.	.	.
*	*	*	*	*custos:ff	*	*	*	*	*	*	*
!	!	!LO:TX:t=P:problem:mixed beam	!	!LO:LB:g=original	!	!	!	!	!	!	!
4FF/	.	8a/L	.	8ff\L	.	.	.	.	.	.	.
.	.	8ffny\	.	8aa\	.	.	.	.	.	.	.
!LO:TX:t=P:problem:kreska pseudotaktowa	!	!	!	!	!	!	!	!	!	!	!
4GG/	.	8ee\	.	8gg\	.	.	.	.	.	.	.
!	!	!LO:TX:t=P:problem:kreska pseudotaktowa	!	!LO:TX:t=P:problem:kreska pseudotaktowa	!	!	!	!	!	!	!
.	.	8dd\J	.	8ff\J	.	.	.	.	.	.	.
4AA/	.	16cc\LL	.	16ee\LL	.	.	.	.	.	.	.
.	.	16b\	.	16dd\	.	.	.	.	.	.	.
.	.	16cc\	.	16ee\	.	.	.	.	.	.	.
.	.	16dd\JJ	.	16ff\JJ	.	.	.	.	.	.	.
4EE/	6	8ee\L	.	8gg\L	.	.	.	.	.	.	.
.	.	8ee\J	.	8gg\J	.	.	.	.	.	.	.
2FF/	.	8a/L	.	4.ff\	.	.	.	.	.	.	.
.	.	8b/J	.	.	.	.	.	.	.	.	.
!	!	!LO:TX:t=P:problem:kreska pseudotaktowa	!	!	!	!	!	!	!	!	!
.	.	[4cc\	.	.	.	.	.	.	.	.	.
!	!	!	!	!LO:TX:t=P:problem:kreska pseudotaktowa	!	!	!	!	!	!	!
.	.	.	.	8ee\	.	.	.	.	.	.	.
=24-	=24-	=24-	=24-	=24-	=24-	=24-	=24-	=24-	=24-	=24-	=24-
2GG/	4:3	4cc\]	.	4.dd\	.	2r	.	.	8r	.	.
.	.	.	.	.	.	.	.	.	8d/	da	Da
.	.	4b/	.	.	.	.	.	.	8g/	mi-	mi-
.	.	.	.	8dd\	.	.	.	.	8f/	-hi	-hi
*	*	*custos:cc	*	*	*	*	*	*	*	*	*
!LO:TX:t=P:problem:kreska pseudotaktowa	!	!LO:LB:g=original	!	!	!	!	!	!	!	!	!
2C/	.	4cc\	.	4.ee\	.	8r	.	.	4e/	ve-	ve-
.	.	.	.	.	.	8g\	da	Da	.	.	.
!	!	!LO:TX:t=P:problem:kreska pseudotaktowa	!	!	!	!	!	!	!	!	!
.	.	[4g/	.	.	.	8cc\	mi-	mi-	8e/	-ni-	-ni-
!	!	!	!	!LO:TX:t=P:problem:kreska pseudotaktowa	!	!LO:TX:t=P:problem:kreska pseudotaktowa	!	!	!LO:TX:t=P:problem:kreska pseudotaktowa	!	!
.	.	.	.	8ee\	.	8b\	-hi	-hi	8e/	-am	-am
*	*	*	*	*	*	*custos:b	*	*	*	*	*
!	!	!	!	!	!	!LO:LB:g=original	!	!	!	!	!
4GG/	.	8g/]L	.	8dd\L	.	4b\	ve-	ve-	2r	.	.
.	.	8a/J	.	8dd\J	.	.	.	.	.	.	.
4G\	.	8b/L	.	8gg\L	.	8b\	-ni-	-ni-	.	.	.
.	.	16a/L	.	16ff\L	.	8b\	-am	-am	.	.	.
.	.	16g/JJ	.	16ee\JJ	.	.	.	.	.	.	.
!	!	!	!	!LO:TX:t=P:problem:kreska pseudotaktowa	!	!	!	!	!	!	!
2D/	-	2a/	.	2ff\	.	4r	.	.	4r	.	.
.	.	.	.	.	.	8dd\	di-	di-	8ff\	Di-	di-
!	!	!	!	!	!	!LO:TX:t=P:problem:kreska pseudotaktowa	!	!	!	!	!
.	.	.	.	.	.	8cc\	-li-	-li-	8ee\	-li-	-li-
=25-	=25-	=25-	=25-	=25-	=25-	=25-	=25-	=25-	=25-	=25-	=25-
2D/	6	2dd\	.	4.ff\	.	4b\	-cto-	-cto-	4dd\	-cto-	-cto-
.	.	.	.	.	.	8b\	-rúm	-rum	8dd\	-rúm	-rum
.	.	.	.	8aa\	.	8a\	me-	me-	8cc\	me-	me-
!	!	!	!	!	!	!	!	!	!LO:TX:t=P:problem:kreska pseudotaktowa	!	!
!LO:TX:t=P:problem:kreska pseudotaktowa	!	!	!	!	!	!	!	!	!	!	!
2E\	4:3	4r	.	2ee\	.	(4.a\	-o-	-o-	2b\	-o-	-o-
!	!	!LO:TX:t=P:problem:kreska pseudotaktowa	!	!	!	!	!	!	!	!	!
.	.	4b/	.	.	.	.	.	.	.	.	.
!	!	!	!	!	!	!LO:TX:t=P:problem:kreska pseudotaktowa	!	!	!	!	!
.	.	.	.	.	.	8g#X\)	.	.	.	.	.
*	*	*	*	*	*	*	*	*	*custos:cc	*	*
!	!	!	!	!	!	!	!	!	!LO:LB:g=original	!	!
2A\	-	2a/	.	2ee\	.	4a\	-rúm	-rum,	4cc\	-rúm	-rum,
.	.	.	.	.	.	8a\	di-	di-	8cc\	di-	di-
.	.	.	.	.	.	8gny/	-li-	-li-	8b\	-li-	-li-
2AA/	# 6:5	4a/	.	4aa\	.	4f#X/	-cto-	-cto-	4a\	-cto-	-cto-
!	!	!LO:TX:t=P:problem:kreska pseudotaktowa	!	!LO:TX:t=P:problem:kreska pseudotaktowa	!	!	!	!	!	!	!
.	.	4ee\	.	[4ccc\	.	8e/	-rúm	-rum	8a\	-rúm	-rum
!	!	!	!	!	!	!LO:TX:t=P:problem:kreska pseudotaktowa	!	!	!LO:TX:t=P:problem:kreska pseudotaktowa	!	!
.	.	.	.	.	.	8e/	me-	me-	8g/	me-	me-
=26-	=26-	=26-	=26-	=26-	=26-	=26-	=26-	=26-	=26-	=26-	=26-
2BB/	9:8 4:3	4r	.	4ccc\]	.	(>4.e/	-o-	-o-	2f#X/	-o-	-o-
.	.	4b/	.	8bb\L	.	.	.	.	.	.	.
.	.	.	.	8aa\J	.	8d#X/)	.	.	.	.	.
!LO:TX:t=P:problem:kreska pseudotaktowa	!	!	!	!	!	!	!	!	!	!	!
2E\	-	4b/	.	4gg#X\	.	4e/	-rúm	-rum.	4g#X/	-rúm	-rum.
!	!	!	!	!LO:TX:t=P:problem:kreska pseudotaktowa	!	!LO:TX:t=P:problem:kreska pseudotaktowa	!	!	!	!	!
.	.	2ee\	.	4r	.	4r	.	.	4r	.	.
*custos:F	*	*	*	*custos:bb	*	*	*	*	*	*	*
!LO:LB:g=original	!	!	!	!LO:LB:g=original	!	!LO:TX:b:t=13:mod=	!	!	!LO:TX:b:t=13:mod=	!	!
2F#X\	7:6	.	.	2r	.	00r	.	.	00r	.	.
.	.	8dd\L	.	.	.	.	.	.	.	.	.
.	.	8cc\J	.	.	.	.	.	.	.	.	.
2G\	.	4b/	.	4r	.	.	.	.	.	.	.
!	!	!LO:TX:t=P:problem:kreska pseudotaktowa	!	!	!	!	!	!	!	!	!
.	.	[4gg\	.	2bb\	.	.	.	.	.	.	.
=27-	=27-	=27-	=27-	=27-	=27-	=27-	=27-	=27-	=27-	=27-	=27-
2A\	9:8	4gg\]	.	.	.	.	.	.	.	.	.
.	.	8ff#X\L	.	8aa\L	.	.	.	.	.	.	.
.	.	8ee\J	.	8ggny\J	.	.	.	.	.	.	.
4B\	.	8dd\L	.	8ff#X\L	.	.	.	.	.	.	.
.	.	8ee\J	.	8gg\J	.	.	.	.	.	.	.
!LO:TX:t=P:problem:kreska pseudotaktowa	!	!LO:TX:t=P:problem:kreska pseudotaktowa	!	!LO:TX:t=P:problem:kreska pseudotaktowa	!	!	!	!	!	!	!
4F#X\	6	4ff#X\	.	4aa\	.	.	.	.	.	.	.
2G\	.	8b\L	.	4.gg\	.	.	.	.	.	.	.
.	.	8cc\J	.	.	.	.	.	.	.	.	.
.	.	2dd\	.	.	.	.	.	.	.	.	.
.	.	.	.	8ff#X\	.	.	.	.	.	.	.
2A\	4:3	.	.	4.ee\	.	.	.	.	.	.	.
!	!	!LO:TX:t=P:problem:kreska pseudotaktowa	!	!	!	!	!	!	!	!	!
.	.	4cc#X\	.	.	.	.	.	.	.	.	.
!	!	!	!	!LO:TX:t=P:problem:kreska pseudotaktowa	!	!	!	!	!	!	!
.	.	.	.	8ee\	.	.	.	.	.	.	.
*	*	*custos:dd	*	*	*	*	*	*	*	*	*
!	!	!LO:LB:g=original	!	!	!	!	!	!	!	!	!
=28-	=28-	=28-	=28-	=28-	=28-	=28-	=28-	=28-	=28-	=28-	=28-
!	!	!	!	!	!	!LO:MO:null:mod=0r	!	!	!LO:MO:null:mod=0r	!	!
2D/	#	4dd\	.	2ff#X\	.	.	.	.	.	.	.
.	.	2dd\	.	.	.	.	.	.	.	.	.
!LO:TX:t=P:problem:kreska pseudotaktowa	!	!	!	!	!	!	!	!	!	!	!
2E\	7:6	.	.	2r	.	.	.	.	.	.	.
.	.	8ccny\L	.	.	.	.	.	.	.	.	.
!	!	!LO:TX:t=P:problem:kreska pseudotaktowa	!	!	!	!	!	!	!	!	!
.	.	8b\J	.	.	.	.	.	.	.	.	.
!	!	!	!	!	!	!LO:MO:mod=.	!	!	!LO:MO:mod=.	!	!
2F#X\	.	4.a/	.	4r	.	00r	.	.	00r	.	.
.	.	.	.	2aa\	.	.	.	.	.	.	.
.	.	8a/	.	.	.	.	.	.	.	.	.
2G\	9:8	4.b/	.	.	.	.	.	.	.	.	.
.	.	.	.	8gg\L	.	.	.	.	.	.	.
!	!	!LO:TX:t=P:problem:kreska pseudotaktowa	!	!LO:TX:t=P:problem:kreska pseudotaktowa	!	!	!	!	!	!	!
.	.	8b/	.	8ff#\J	.	.	.	.	.	.	.
=29-	=29-	=29-	=29-	=29-	=29-	=29-	=29-	=29-	=29-	=29-	=29-
!LO:TX:t=P:problem:kreska pseudotaktowa	!	!	!	!	!	!LO:MO:null:mod=0r	!	!	!LO:MO:null:mod=0r	!	!
1A	#	4cc#X\	.	4ee\	.	.	.	.	.	.	.
.	.	8a/L	.	8cc#X\L	.	.	.	.	.	.	.
.	.	8b/J	.	8dd\J	.	.	.	.	.	.	.
.	.	8cc#X\L	.	8ee\L	.	.	.	.	.	.	.
.	.	8b\	.	8dd\	.	.	.	.	.	.	.
.	.	8cc#X\	.	8ee\	.	.	.	.	.	.	.
!	!	!LO:TX:t=P:problem:kreska pseudotaktowa	!	!LO:TX:t=P:problem:kreska pseudotaktowa	!	!	!	!	!	!	!
.	.	8dd\J	.	8ff#X\J	.	.	.	.	.	.	.
1E	-	4ee\	.	4gg\	.	.	.	.	.	.	.
.	.	8e/L	.	8g/L	.	.	.	.	.	.	.
.	.	8f#X/J	.	8a/J	.	.	.	.	.	.	.
.	.	8g/L	.	8b/L	.	.	.	.	.	.	.
.	.	8f#X/	.	8a/	.	.	.	.	.	.	.
.	.	8g/	.	8b/	.	.	.	.	.	.	.
!	!	!LO:TX:t=P:problem:kreska pseudotaktowa	!	!LO:TX:t=P:problem:kreska pseudotaktowa	!	!	!	!	!	!	!
.	.	8a/J	.	8ccny/J	.	.	.	.	.	.	.
=30-	=30-	=30-	=30-	=30-	=30-	=30-	=30-	=30-	=30-	=30-	=30-
!	!	!	!	!	!	!LO:MO:null:mod=0r	!	!	!LO:MO:null:mod=0r	!	!
4BB/	6	8b/L	.	8dd\L	.	.	.	.	.	.	.
.	.	8b/	.	8dd\	.	.	.	.	.	.	.
4C/	.	8a/	.	8cc\	.	.	.	.	.	.	.
.	.	8g/J	.	8b\J	.	.	.	.	.	.	.
!LO:TX:t=P:problem:kreska pseudotaktowa	!	!	!	!	!	!	!	!	!	!	!
2D/	4:3	4.g/	.	4.a/	.	.	.	.	.	.	.
!	!	!LO:TX:t=P:problem:kreska pseudotaktowa	!	!LO:TX:t=P:problem:kreska pseudotaktowa	!	!	!	!	!	!	!
.	.	8f#X/	.	8a/	.	.	.	.	.	.	.
*	*	*	*	*custos:b	*	*	*	*	*	*	*
!	!	!	!	!LO:LB:g=original	!	!LO:MO:mod=.	!	!	!LO:MO:mod=.	!	!
1G	#	4g/	.	4b/	.	00r	.	.	00r	.	.
.	.	8g/L	.	8b/L	.	.	.	.	.	.	.
.	.	8a/J	.	8cc/J	.	.	.	.	.	.	.
.	.	8b/L	.	8dd\L	.	.	.	.	.	.	.
!	!	!LO:SIC:o=8a/J	!	!	!	!	!	!	!	!	!
.	.	8a/	.	8cc\	.	.	.	.	.	.	.
!	!	!LO:SIC:o=8b/L	!	!	!	!	!	!	!	!	!
.	.	8b/	.	8dd\	.	.	.	.	.	.	.
!	!	!LO:TX:t=P:problem:kreska pseudotaktowa	!	!LO:TX:t=P:problem:kreska pseudotaktowa	!	!	!	!	!	!	!
.	.	8cc#X/J	.	8ee\J	.	.	.	.	.	.	.
*	*	*custos:dd	*	*	*	*	*	*	*	*	*
!	!	!LO:LB:g=original	!	!	!	!	!	!	!	!	!
=31-	=31-	=31-	=31-	=31-	=31-	=31-	=31-	=31-	=31-	=31-	=31-
!LO:TX:t=P:problem:kreska pseudotaktowa	!	!	!	!	!	!LO:MO:null:mod=0r	!	!	!LO:MO:null:mod=0r	!	!
1D	#	4dd\	.	4ff#X\	.	.	.	.	.	.	.
.	.	8dd\L	.	8ff#\L	.	.	.	.	.	.	.
.	.	8ee\J	.	8gg\J	.	.	.	.	.	.	.
.	.	8ff#X\L	.	8aa\L	.	.	.	.	.	.	.
.	.	8ee\	.	8gg\	.	.	.	.	.	.	.
.	.	8dd\	.	8ff#X\	.	.	.	.	.	.	.
!	!	!LO:TX:t=P:problem:kreska pseudotaktowa	!	!LO:TX:t=P:problem:kreska pseudotaktowa	!	!	!	!	!	!	!
.	.	8ee\J	.	8gg\J	.	.	.	.	.	.	.
4A\	.	4cc#X\	.	4.ee\	.	.	.	.	.	.	.
4F#X\	6	4a/	.	.	.	.	.	.	.	.	.
.	.	.	.	8aa\	.	.	.	.	.	.	.
!LO:TX:t=P:problem:kreska pseudotaktowa	!	!	!	!	!	!	!	!	!	!	!
2G\	.	8b\L	.	4.gg\	.	.	.	.	.	.	.
.	.	8cc#\J	.	.	.	.	.	.	.	.	.
.	.	2dd\	.	.	.	.	.	.	.	.	.
!	!	!	!	!LO:TX:t=P:problem:kreska pseudotaktowa	!	!	!	!	!	!	!
.	.	.	.	8ff#\	.	.	.	.	.	.	.
*custos:A	*	*	*	*	*	*	*	*	*	*	*
!LO:LB:g=original	!	!	!	!	!	!	!	!	!	!	!
=32-	=32-	=32-	=32-	=32-	=32-	=32-	=32-	=32-	=32-	=32-	=32-
!	!	!	!	!	!	!	!	!	!LO:TX:t=P:problem:kreska pseudotaktowa	!	!
!	!	!	!	!	!	!LO:MO:null:mod=0r	!	!	!LO:MO:null:mod=0r	!	!
2A\	4:3	.	.	4.ee\	.	.	.	.	.	.	.
.	.	4cc#X\	.	.	.	.	.	.	.	.	.
.	.	.	.	8ee\	.	.	.	.	.	.	.
4D/	.	4dd\	.	4.ff#X\	.	.	.	.	.	.	.
!LO:TX:t=P:problem:kreska pseudotaktowa	!	!LO:TX:t=P:problem:kreska pseudotaktowa	!LO:DY:b:B:t=Pian.	!	!	!	!	!	!	!	!
4F#X\	6	4a/	p	.	.	.	.	.	.	.	.
!	!	!	!	!LO:TX:t=P:problem:kreska pseudotaktowa	!LO:DY:b:B:t=Piano	!	!	!	!	!	!
.	.	.	.	8aa\	p	.	.	.	.	.	.
!	!	!	!	!	!	!LO:MO:mod=.	!	!	!LO:MO:mod=.	!	!
2G\	.	8b\L	.	4.gg\	.	1r	.	.	1r	.	.
.	.	8cc#\J	.	.	.	.	.	.	.	.	.
.	.	2dd\	.	.	.	.	.	.	.	.	.
.	.	.	.	8ff#\	.	.	.	.	.	.	.
2A\	4:3	.	.	4.ee\	.	.	.	.	.	.	.
.	.	4cc#X\	.	.	.	.	.	.	.	.	.
!	!	!	!	!LO:TX:t=P:problem:kreska pseudotaktowa	!	!	!	!	!	!	!
.	.	.	.	8ee\	.	.	.	.	.	.	.
=33-	=33-	=33-	=33-	=33-	=33-	=33-	=33-	=33-	=33-	=33-	=33-
!LO:TX:t=P:problem:kreska pseudotaktowa	!	!	!	!	!	!	!	!	!	!	!
1D	5:6 #	2dd\	.	2ff#X\	.	2r	.	.	4r	.	.
.	.	.	.	.	.	.	.	.	8a\	Par-	Par-
.	.	.	.	.	.	.	.	.	8a\	-ce	-ce,
!	!	!	!	!	!	!	!	!	!LO:TX:t=P:problem:kreska pseudotaktowa	!	!
.	.	2r	.	2r	.	4r	.	.	2b\	par-	par-
.	.	.	.	.	.	8f#X/	Par-	Par-	.	.	.
!	!	!	!	!	!	!LO:TX:t=P:problem:kreska pseudotaktowa	!	!	!	!	!
.	.	.	.	.	.	8f#/	-ce	-ce,	.	.	.
*	*	*	*	*	*	*custos:g	*	*	*	*	*
!	!	!LO:TX:a:t=7:mod=	!	!LO:TX:a:t=6:mod=	!	!LO:LB:g=original	!	!	!	!	!
4E\	.	00r	.	00r	.	4g/	par-	par-	4.b\	-ce,	-ce
4BB/	.	.	.	.	.	8d#X/	-ce	-ce	.	.	.
.	.	.	.	.	.	8d#/	mi	mi	8b\	mi	mi
2C/	7:6	.	.	.	.	4e/	je-	Je-	(4b\	Je-	Je-
!	!	!	!	!	!	!LO:TX:t=P:problem:kreska pseudotaktowa	!	!	!LO:TX:t=P:problem:kreska pseudotaktowa	!	!
.	.	.	.	.	.	4e/	-sú	-su,	4a\)	.	.
=34-	=34-	=34-	=34-	=34-	=34-	=34-	=34-	=34-	=34-	=34-	=34-
!LO:TX:t=P:problem:kreska pseudotaktowa	!	!	!	!	!	!	!	!	!	!	!
1GG#X	6	.	.	.	.	4r	.	.	2b\	-ſú	-ſu,
.	.	.	.	.	.	2ee\	par-	par-	.	.	.
.	.	.	.	.	.	.	.	.	1b	par-	par-
.	.	.	.	.	.	4dd\	-ce	-ce,	.	.	.
1AA	9:8	.	.	.	.	2cc\	par-	par-	.	.	.
.	.	.	.	.	.	4.cc\	-ce	-ce	4.a\	-ce	-ce
!	!	!	!	!	!	!	!	!	!LO:TX:t=P:problem:kreska pseudotaktowa	!	!
!	!	!	!	!	!	!LO:TX:t=P:problem:kreska pseudotaktowa	!	!	!	!	!
.	.	.	.	.	.	8b\	mi	mi	8a\	mi	mi
*	*	*	*	*	*	*	*	*	*custos:a	*	*
!	!	!	!	!	!	!	!	!	!LO:LB:g=original	!	!
=35-	=35-	=35-	=35-	=35-	=35-	=35-	=35-	=35-	=35-	=35-	=35-
4D/	6	.	.	.	.	2b\	je-	Je-	(4.a\	je-	Je-
4E\	.	.	.	.	.	.	.	.	.	.	.
.	.	.	.	.	.	.	.	.	8g#X\)	.	.
!LO:TX:t=P:problem:kreska pseudotaktowa	!	!	!	!	!	!	!	!	!	!	!
[<2A\	5	.	.	.	.	4a\	-sú	-su,	4a\	-sú	-su.
*	*	*	*	*	*	*	*ij	*	*	*	*
!	!	!	!	!	!	!	!	!	!LO:TX:t=P:problem:kreska pseudotaktowa	!	!
.	.	.	.	.	.	8ee\	par-	par-	4r	.	.
!	!	!	!	!	!	!LO:TX:t=P:problem:kreska pseudotaktowa	!	!	!	!	!
.	.	.	.	.	.	8ee\	-ce	-ce,	.	.	.
2A\]	# 6	0r	.	0r	.	4ff#X\	par-	par-	2r	.	.
.	.	.	.	.	.	8cc#X\	-ce	-ce	.	.	.
.	.	.	.	.	.	8cc#\	mi	mi	.	.	.
4B\	.	.	.	.	.	4dd\	je-	Je-	4r	.	.
!	!	!	!	!	!	!LO:TX:t=P:problem:kreska pseudotaktowa	!	!	!	!	!
4F#X\	.	.	.	.	.	4dd\	-sú	-su,	8a\	par-	Par-
*	*	*	*	*	*	*	*Xij	*	*	*	*
!	!	!	!	!	!	!	!	!	!LO:TX:t=P:problem:kreska pseudotaktowa	!	!
.	.	.	.	.	.	.	.	.	8a\	-ce	-ce,
=36-	=36-	=36-	=36-	=36-	=36-	=36-	=36-	=36-	=36-	=36-	=36-
!	!	!LO:TX:t=P:problem:kreska pseudotaktowa	!	!	!	!	!	!	!	!	!
4G\	.	.	.	.	.	4r	.	.	4b\	par-	par-
4D/	#	.	.	.	.	2dd\	par-	par-	8f#X/	-ce	-ce
.	.	.	.	.	.	.	.	.	8f#/	mi	mi
4BB/	6	.	.	.	.	.	.	.	4gny/	je-	Je-
!LO:TX:t=P:problem:kreska pseudotaktowa	!	!	!	!	!	!	!	!	!	!	!
4C/	.	.	.	.	.	8ccny\	-ce	-ce	8g/	-sú	-su,
!	!	!	!	!	!	!	!	!	!LO:TX:t=P:problem:kreska pseudotaktowa	!	!
.	.	.	.	.	.	8b\	mi	mi	8g/	mi	mi
2D/	4:3	1r	.	2r	.	2a\	je-	Je-	(4.g/	je-	Je-
.	.	.	.	.	.	.	.	.	8f#X/)	.	.
!LO:TX:t=P:problem:kreska pseudotaktowa	!	!	!	!	!	!	!	!	!	!	!
2GGny/	.	.	.	4r	.	4b\	-sú	-su.	4g/	-sú	-su.
.	.	.	.	8dd\L	.	4r	.	.	4r	.	.
!	!	!	!	!LO:TX:t=P:problem:kreska pseudotaktowa	!	!	!	!	!	!	!
.	.	.	.	8dd\J	.	.	.	.	.	.	.
*custos:G	*	*	*	*custos:ee	*	*	*	*	*	*	*
!LO:LB:g=original	!	!	!	!LO:LB:g=original	!	!	!	!	!	!	!
=37-	=37-	=37-	=37-	=37-	=37-	=37-	=37-	=37-	=37-	=37-	=37-
!	!	!	!	!	!	!	!	!	!LO:TX:b:t=4:mod=	!	!
2G\	6	4r	.	4ee\	.	00r	.	.	00r	.	.
.	.	8b/L	.	4ee\	.	.	.	.	.	.	.
.	.	8b/J	.	.	.	.	.	.	.	.	.
4A\	.	4ccny\	.	4.ee\	.	.	.	.	.	.	.
!LO:TX:t=P:problem:kreska pseudotaktowa	!	!LO:TX:t=P:problem:kreska pseudotaktowa	!	!	!	!	!	!	!	!	!
4E\	.	4g/	.	.	.	.	.	.	.	.	.
!	!	!	!	!LO:TX:t=P:problem:kreska pseudotaktowa	!	!	!	!	!	!	!
.	.	.	.	8ee\	.	.	.	.	.	.	.
4.F#X\	6	4.a/	.	4dd\	.	.	.	.	.	.	.
.	.	.	.	2dd\	.	.	.	.	.	.	.
8G\	.	16g/LL	.	.	.	.	.	.	.	.	.
.	.	16fny/JJ	.	.	.	.	.	.	.	.	.
4A\	4:3	4.e/	.	.	.	.	.	.	.	.	.
!LO:TX:t=P:problem:kreska pseudotaktowa	!	!	!	!LO:TX:t=P:problem:kreska pseudotaktowa	!	!	!	!	!	!	!
4AA/	.	.	.	4cc#X\	.	.	.	.	.	.	.
.	.	8e/	.	.	.	.	.	.	.	.	.
=38-	=38-	=38-	=38-	=38-	=38-	=38-	=38-	=38-	=38-	=38-	=38-
!	!	!	!	!	!	!LO:TX:t=P:problem:kreska pseudotaktowa	!	!	!	!	!
!	!	!	!	!	!	!	!	!	!LO:TX:t=P:problem:kreska pseudotaktowa	!	!
2D/	.	2f#X/	.	4dd\	.	.	.	.	.	.	.
.	.	.	.	8aa\L	.	.	.	.	.	.	.
.	.	.	.	8aa\J	.	.	.	.	.	.	.
!LO:TX:t=P:problem:kreska pseudotaktowa	!	!	!	!	!	!	!	!	!	!	!
2D/	6 #	4r	.	4bb\	.	.	.	.	.	.	.
!	!	!	!	!LO:TX:t=P:problem:kreska pseudotaktowa	!	!	!	!	!	!	!
.	.	8ff#X\L	.	4bb\	.	.	.	.	.	.	.
!	!	!LO:TX:t=P:problem:kreska pseudotaktowa	!	!	!	!	!	!	!	!	!
.	.	8ff#\J	.	.	.	.	.	.	.	.	.
*	*	*custos:gg	*	*	*	*	*	*	*	*	*
!	!	!LO:LB:g=original	!	!	!	!	!	!	!	!	!
4E\	.	4gg\	.	4.bb\	.	.	.	.	.	.	.
4BB/	.	4dd\	.	.	.	.	.	.	.	.	.
.	.	.	.	8bb\	.	.	.	.	.	.	.
4.C/	6	4.ee\	.	4aa\	.	.	.	.	.	.	.
.	.	.	.	2aa\	.	.	.	.	.	.	.
!LO:TX:t=P:problem:kreska pseudotaktowa	!	!	!	!	!	!	!	!	!	!	!
8D/	.	16dd\LL	.	.	.	.	.	.	.	.	.
!	!	!LO:TX:t=P:problem:kreska pseudotaktowa	!	!	!	!	!	!	!	!	!
.	.	16cc\JJ	.	.	.	.	.	.	.	.	.
*	*	*	*	*	*	*custos:a	*	*	*	*	*
!	!	!	!	!	!	!LO:LB:g=original	!	!	!	!	!
=39-	=39-	=39-	=39-	=39-	=39-	=39-	=39-	=39-	=39-	=39-	=39-
2E\	4:3	4.b/	.	.	.	2r	.	.	2r	.	.
.	.	.	.	4gg#X\	.	.	.	.	.	.	.
.	.	8b/	.	.	.	.	.	.	.	.	.
4AA/	.	2cc\	.	2aa\	.	4r	.	.	4r	.	.
4A\	.	.	.	.	.	8a\	par-	Par-	8cc\	par-	Par-
!	!	!	!	!	!	!LO:TX:t=P:problem:kreska pseudotaktowa	!	!	!LO:TX:t=P:problem:kreska pseudotaktowa	!	!
.	.	.	.	.	.	8a\	-ce	-ce,	8cc\	-ce	-ce,
4.B\	7:6	0r	.	0r	.	4a\	par-	par-	4b\	par-	par-
.	.	.	.	.	.	8g/	-ce	-ce	8b\	-ce	-ce
8c#X\	.	.	.	.	.	8g/	mi	mi	8b\	mi	mi
!LO:TX:t=P:problem:kreska pseudotaktowa	!	!	!	!	!	!	!	!	!	!	!
2d\	4:3	.	.	.	.	4g/	je-	Je-	4a\	je-	Je-
!	!	!	!	!	!	!LO:TX:t=P:problem:kreska pseudotaktowa	!	!	!LO:TX:t=P:problem:kreska pseudotaktowa	!	!
.	.	.	.	.	.	4f#X/	-sú	-su,	4a\	-sú	-su,
=40-	=40-	=40-	=40-	=40-	=40-	=40-	=40-	=40-	=40-	=40-	=40-
!	!	!LO:TX:t=P:problem:kreska pseudotaktowa	!	!LO:TX:t=P:problem:kreska pseudotaktowa	!	!	!	!	!	!	!
4.G\	7:6	.	.	.	.	4f#y/	par-	par-	4.g/	par-	par-
.	.	.	.	.	.	4e/	-ce	-ce,	.	.	.
8A\	.	.	.	.	.	.	.	.	8g/	-ce	-ce,
!	!	!	!	!	!	!	!	!	!LO:TX:t=P:problem:kreska pseudotaktowa	!	!
2B\	4:3	.	.	.	.	(4.e/	par-	par-	2f#X/	par-	par-
!	!	!	!	!	!	!LO:TX:t=P:problem:kreska pseudotaktowa	!	!	!	!	!
.	.	.	.	.	.	8d#X/)	.	.	.	.	.
*	*	*	*	*	*	*	*	*	*custos:e	*	*
!	!	!	!	!	!	!	!	!	!LO:LB:g=original	!	!
2E\	-	4r	.	4r	.	4e/	-ce	-ce.	4e/	-ce	-ce.
.	.	4e/	.	4g/	.	4r	.	.	4r	.	.
!LO:TX:t=P:problem:kreska pseudotaktowa	!	!	!	!	!	!	!	!	!	!	!
2B\	4:3	4.e/	.	4.f#X/	.	2r	.	.	2r	.	.
!	!	!LO:TX:t=P:problem:kreska pseudotaktowa	!	!LO:TX:t=P:problem:kreska pseudotaktowa	!	!	!	!	!	!	!
.	.	8d#X/	.	8f#/	.	.	.	.	.	.	.
*custos:E	*	*	*	*	*	*	*	*	*	*	*
!LO:PB:g=original	!	!	!	!	!	!	!	!	!	!	!
=41-	=41-	=41-	=41-	=41-	=41-	=41-	=41-	=41-	=41-	=41-	=41-
!	!	!	!	!	!	!LO:TX:t=P:problem:kreska pseudotaktowa	!	!	!	!	!
4E\	.	4e/	.	4e/	.	0r	.	.	1r	.	.
4r	.	4r	.	4r	.	.	.	.	.	.	.
!LO:TX:t=P:problem:kreska pseudotaktowa	!	!	!	!	!	!	!	!	!	!	!
2r	.	2r	.	2r	.	.	.	.	.	.	.
!LO:TX:t=P:problem:kreska pseudotaktowa	!	!LO:TX:a:t=7:mod=	!	!LO:TX:a:t=7:mod=	!	!	!	!	!	!	!
1E	5:6	00r	.	00r	.	.	.	.	4r	.	.
.	.	.	.	.	.	.	.	.	4b\	Pro-	pro-
.	.	.	.	.	.	.	.	.	4cc\	-pi-	-pi-
.	.	.	.	.	.	.	.	.	8g#X/	-ti-	-ti-
!	!	!	!	!	!	!	!	!	!LO:TX:t=P:problem:kreska pseudotaktowa	!	!
.	.	.	.	.	.	.	.	.	8g#/	-ús	-us
=42-	=42-	=42-	=42-	=42-	=42-	=42-	=42-	=42-	=42-	=42-	=42-
4Fny\	_	.	.	.	.	4r	.	.	4.a\	es-	es-
4C#X/	6	.	.	.	.	4ee\	pro-	Pro-	.	.	.
.	.	.	.	.	.	.	.	.	8gny/	-to	-to
4D/	-	.	.	.	.	4ffny\	-pi-	-pi-	4fny/	mi-	mi-
!	!	!	!	!	!	!	!	!	!LO:TX:t=P:problem:kreska pseudotaktowa	!	!
4AA/	#	.	.	.	.	8cc#X\	-ti-	-ti-	4a\	-hi	-hi
!	!	!	!	!	!	!LO:TX:t=P:problem:kreska pseudotaktowa	!	!	!	!	!
.	.	.	.	.	.	8cc#\	-ús	-us	.	.	.
4.BB/	.	.	.	.	.	(8dd\L	es-	es-	4d/	es-	es-
.	.	.	.	.	.	8cc#\J)	.	.	.	.	.
.	.	.	.	.	.	(8b\L	-to	-to	4g\	-to	-to
8C#/	.	.	.	.	.	8a\J)	.	.	.	.	.
!LO:TX:t=P:problem:kreska pseudotaktowa	!	!	!	!	!	!LO:TX:t=P:problem:kreska pseudotaktowa	!	!	!	!	!
2D/	4:3	.	.	.	.	2a\	mi-	mi-	(4.g/	mi-	mi-
!	!	!	!	!	!	!	!	!	!LO:TX:t=P:problem:kreska pseudotaktowa	!	!
.	.	.	.	.	.	.	.	.	8f#X/)	.	.
=43-	=43-	=43-	=43-	=43-	=43-	=43-	=43-	=43-	=43-	=43-	=43-
2G\	.	.	.	.	.	4b\	-hi	-hi,	4g/	-hi,	-hi,
.	.	.	.	.	.	4r	.	.	4dd\	pro-	pro-
2G#X\	6	.	.	.	.	2r	.	.	4ee\	-pi-	-pi-
.	.	.	.	.	.	.	.	.	8b\	-ti-	-ti-
!	!	!	!	!	!	!	!	!	!LO:TX:t=P:problem:kreska pseudotaktowa	!	!
.	.	.	.	.	.	.	.	.	8b\	-ús	-us
!	!	!	!	!	!	!LO:PB:g=original	!	!	!	!	!
2A\	#	0r	.	0r	.	2r	.	.	4cc#X\	es-	es-
.	.	.	.	.	.	.	.	.	4cc#\	-to	-to
4.A\	#	.	.	.	.	4.ee\	mi-	mi-	4.cc#\	mi-	mi-
!LO:TX:t=P:problem:kreska pseudotaktowa	!	!	!	!	!	!	!	!	!	!	!
8G#\	.	.	.	.	.	8ee\	-hi	-hi	8cc#\	-hi	-hi
=44-	=44-	=44-	=44-	=44-	=44-	=44-	=44-	=44-	=44-	=44-	=44-
!	!	!LO:TX:t=P:problem:kreska pseudotaktowa	!	!	!	!	!	!	!	!	!
!LO:SIC:v:o=2F\	!	!LO:TX:a:t=Verte:mod=	!	!	!	!	!	!	!	!	!
2F#	7 6	.	.	.	.	2ee\	pec-	pec-	2dd\	pec-	pec-
!	!	!	!	!	!	!	!	!	!LO:TX:t=P:problem:kreska pseudotaktowa	!	!
4Gny\	.	.	.	.	.	2ee\	-ca-	-ca-	2dd\	-ca-	-ca-
4G#X\	6 5	.	.	.	.	.	.	.	.	.	.
*	*	*	*	*	*	*	*	*	*custos:dd	*	*
!LO:TX:t=P:problem:kreska pseudotaktowa	!	!	!	!	!	!LO:TX:t=P:problem:kreska pseudotaktowa	!	!	!LO:PB:original	!	!
1A	4:3	1r	.	1r	.	1ee	-to-	-to-	4.dd\	-to-	-to-
.	.	.	.	.	.	.	.	.	16ee\LL	.	.
.	.	.	.	.	.	.	.	.	16dd\JJ	.	.
.	.	.	.	.	.	.	.	.	4.cc#X\	.	.
!	!	!	!	!	!	!	!	!	!LO:TX:t=P:problem:kreska pseudotaktowa	!	!
.	.	.	.	.	.	.	.	.	8dd\	.	.
!	!	!LO:PB:g=original	!	!LO:PB:g=original	!	!	!	!	!	!	!
=45||	=45||	=45||	=45||	=45||	=45||	=45||	=45||	=45||	=45||	=45||	=45||
!LO:MO:mod=*M3/1	!	!LO:MO:mod=*M3/1	!	!LO:MO:mod=*M3/1	!	!LO:MO:mod=*M3/1	!	!	!LO:MO:mod=*M3/1	!	!
*M3/2	*	*M3/2	*	*M3/2	*	*M3/2	*	*	*M3/2	*	*
!	!	!LO:TX:a:t=5:mod=	!	!LO:TX:a:t=7:mod=	!	!	!	!	!	!	!
1.D	.	00.r	.	00.r	.	2dd\	-ri	-ri,	2dd\	-ri,	-ri,
.	.	.	.	.	.	2r	.	.	2a\	et	et
!	!	!	!	!	!	!	!	!	!LO:TX:t=P:problem:kreska pseudotaktowa	!	!
.	.	.	.	.	.	2r	.	.	2a\	laú-	lau-
1Gny	.	.	.	.	.	1.r	.	.	4b\	-da-	-da-
.	.	.	.	.	.	.	.	.	8dd\L	.	.
.	.	.	.	.	.	.	.	.	8ccny\J	.	.
.	.	.	.	.	.	.	.	.	4b\	.	.
.	.	.	.	.	.	.	.	.	4g/	-bo	-bo
!LO:TX:t=P:problem:kreska pseudotaktowa	!	!	!	!	!	!	!	!	!	!	!
2Cny/	6	.	.	.	.	.	.	.	4a\	no-	no-
!	!	!	!	!	!	!	!	!	!LO:TX:t=P:problem:kreska pseudotaktowa	!	!
.	.	.	.	.	.	.	.	.	4g/	-men	-men
*custos:D	*	*	*	*	*	*	*	*	*	*	*
!LO:LB:g=original	!	!	!	!	!	!	!	!	!	!	!
=46-	=46-	=46-	=46-	=46-	=46-	=46-	=46-	=46-	=46-	=46-	=46-
1D	.	.	.	.	.	2r	.	.	2f#X/	tú-	tu-
.	.	.	.	.	.	2dd\	et	et	2f#/	-úm	-um
!	!	!	!	!	!	!LO:TX:t=P:problem:kreska pseudotaktowa	!	!	!	!	!
2BB/	.	.	.	.	.	2dd\	laú-	lau-	1g	jn	in
1C	5:6	.	.	.	.	4ee\	-da-	-da-	.	.	.
.	.	.	.	.	.	8gg\L	.	.	.	.	.
.	.	.	.	.	.	8ff\J	.	.	.	.	.
!	!	!	!	!	!	!	!	!	!LO:TX:t=P:problem:kreska pseudotaktowa	!	!
.	.	.	.	.	.	4ee\	.	.	1a	ae-	ae-
.	.	.	.	.	.	4ccny\	-bo	-bo	.	.	.
!LO:TX:t=P:problem:kreska pseudotaktowa	!	!	!	!	!	!	!	!	!	!	!
2F#X\	6	.	.	.	.	4dd\	no-	no-	.	.	.
!	!	!	!	!	!	!LO:TX:t=P:problem:kreska pseudotaktowa	!	!	!	!	!
.	.	.	.	.	.	4cc\	-men	-men	.	.	.
=47-	=47-	=47-	=47-	=47-	=47-	=47-	=47-	=47-	=47-	=47-	=47-
1.G	.	1.r	.	0.r	.	2.b\	tú-	tu-	2.g/	-ter-	-ter-
.	.	.	.	.	.	4cc\	-úm	-um	4a\	-núm	-num
.	.	.	.	.	.	4dd\	jn	in	4b\	jn	in
!	!	!	!	!	!	!LO:TX:t=P:problem:kreska pseudotaktowa	!	!	!LO:TX:t=P:problem:kreska pseudotaktowa	!	!
.	.	.	.	.	.	4ee\	ae-	ae-	4cc\	ae-	ae-
1D	-	2r	.	.	.	4ff\	-ter-	-ter-	4dd\	-ter-	-ter-
.	.	.	.	.	.	4ee\	.	.	4cc\	.	.
.	.	2r	.	.	.	4dd\	.	.	4b\	.	.
.	.	.	.	.	.	4cc\	.	.	4a\	.	.
!	!	!	!	!	!	!	!	!	!LO:TX:t=P:problem:kreska pseudotaktowa	!	!
!LO:TX:t=P:problem:kreska pseudotaktowa	!	!	!	!	!	!	!	!	!	!	!
2E\	#	4b/	.	.	.	2b\	.	.	2g#X/	.	.
!	!	!LO:TX:t=P:problem:kreska pseudotaktowa	!	!	!	!	!	!	!	!	!
.	.	4b/	.	.	.	.	.	.	.	.	.
*	*	*	*	*	*	*	*	*	*custos:a	*	*
!	!	!	!	!	!	!	!	!	!LO:LB:g=original	!	!
=48-	=48-	=48-	=48-	=48-	=48-	=48-	=48-	=48-	=48-	=48-	=48-
1AA	#	4cc#X\	.	1.r	.	2a\	-núm	-num.	2a\	-núm	-num.
.	.	8ee\L	.	.	.	.	.	.	.	.	.
.	.	8dd\J	.	.	.	.	.	.	.	.	.
.	.	4cc#X\	.	.	.	2r	.	.	2r	.	.
.	.	4a/	.	.	.	.	.	.	.	.	.
2D/	6	4b/	.	.	.	2r	.	.	2r	.	.
!	!	!LO:TX:t=P:problem:kreska pseudotaktowa	!	!	!	!	!	!	!	!	!
.	.	4a/	.	.	.	.	.	.	.	.	.
!	!	!	!	!	!	!LO:TX:b:t=4:mod=	!	!	!LO:TX:b:t=6:mod=	!	!
2E\	.	2g#X/	.	2r	.	00.r	.	.	00.r	.	.
!LO:TX:t=P:problem:kreska pseudotaktowa	!	!	!	!	!	!	!	!	!	!	!
1C#X	.	1a	.	2ee\	.	.	.	.	.	.	.
!	!	!	!	!LO:TX:t=P:problem:kreska pseudotaktowa	!	!	!	!	!	!	!
.	.	.	.	2ee\	.	.	.	.	.	.	.
=49-	=49-	=49-	=49-	=49-	=49-	=49-	=49-	=49-	=49-	=49-	=49-
1D	5:6 #	2a/	.	4ff#X\	.	.	.	.	.	.	.
.	.	.	.	8aa\L	.	.	.	.	.	.	.
.	.	.	.	8ggny\J	.	.	.	.	.	.	.
!	!	!LO:TX:t=P:problem:kreska pseudotaktowa	!	!	!	!	!	!	!	!	!
.	.	1b	.	4ff#X\	.	.	.	.	.	.	.
.	.	.	.	4dd\	.	.	.	.	.	.	.
2G\	6	.	.	4ee\	.	.	.	.	.	.	.
!	!	!	!	!LO:TX:t=P:problem:kreska pseudotaktowa	!	!	!	!	!	!	!
.	.	.	.	4dd\	.	.	.	.	.	.	.
!	!	!	!	!LO:TX:t=P:problem:# above	!	!	!	!	!	!	!
1A	#	2.a/	.	2.cc#X\i	.	.	.	.	.	.	.
.	.	4b/	.	4dd\	.	.	.	.	.	.	.
!LO:TX:t=P:problem:kreska pseudotaktowa	!	!	!	!	!	!	!	!	!	!	!
2A\	.	4cc#X\	.	4ee\	.	.	.	.	.	.	.
!	!	!LO:TX:t=P:problem:kreska pseudotaktowa	!	!LO:TX:t=P:problem:kreska pseudotaktowa	!	!	!	!	!	!	!
!	!	!	!	!LO:TX:t=P:problem:# above	!	!	!	!	!	!	!
.	.	4dd\	.	4ff#X\i	.	.	.	.	.	.	.
=50-	=50-	=50-	=50-	=50-	=50-	=50-	=50-	=50-	=50-	=50-	=50-
!	!	!	!	!	!	!LO:TX:t=P:problem:kreska pseudotaktowa	!	!	!	!	!
2E\	6	4ee\	.	4gg\	.	.	.	.	.	.	.
!	!	!	!	!LO:TX:t=P:problem:# above	!	!	!	!	!	!	!
.	.	8dd\L	.	8ff#X\Li	.	.	.	.	.	.	.
!	!	!LO:TX:t=P:problem:# above	!	!	!	!	!	!	!	!	!
.	.	8cc#X\Ji	.	8ee\J	.	.	.	.	.	.	.
1G	.	4b/	.	4dd\	.	.	.	.	.	.	.
!	!	!	!	!LO:TX:t=P:problem:# above	!	!	!	!	!	!	!
.	.	4a/	.	4cc#X\i	.	.	.	.	.	.	.
.	.	4b/	.	4dd\	.	.	.	.	.	.	.
!	!	!LO:TX:t=P:problem:kreska pseudotaktowa	!	!	!	!	!	!	!	!	!
!	!	!	!	!LO:TX:t=P:problem:kreska pseudotaktowa	!	!	!	!	!	!	!
!	!	!LO:TX:t=P:problem:# above	!	!	!	!	!	!	!	!	!
.	.	4cc#X\i	.	4ee\	.	.	.	.	.	.	.
*	*	*custos:dd	*	*	*	*	*	*	*	*	*
!	!	!LO:LB:g=original	!	!	!	!LO:LB:g=original	!	!	!	!	!
2D/	#	2dd\	.	2ff#X\	.	2r	.	.	0.r	.	.
2A\	.	2.dd\	.	2.ee\	.	2e/	et	Et	.	.	.
!LO:TX:t=P:problem:kreska pseudotaktowa	!	!	!	!	!	!LO:TX:t=P:problem:kreska pseudotaktowa	!	!	!	!	!
2AA/	4:3	.	.	.	.	2e/	laú-	lau-	.	.	.
!	!	!	!	!LO:TX:t=P:problem:# above	!	!	!	!	!	!	!
.	.	4cc#X\	.	8ff#X\Li	.	.	.	.	.	.	.
.	.	.	.	8ee\J	.	.	.	.	.	.	.
*custos:D	*	*	*	*	*	*	*	*	*	*	*
!LO:LB:g=original	!	!	!	!	!	!	!	!	!	!	!
=51-	=51-	=51-	=51-	=51-	=51-	=51-	=51-	=51-	=51-	=51-	=51-
!	!	!	!	!	!	!	!	!	!LO:TX:t=P:problem:kreska pseudotaktowa	!	!
1D	#	2dd\	.	2dd\	.	4f#X/	-da-	-da-	.	.	.
.	.	.	.	.	.	8a\L	.	.	.	.	.
.	.	.	.	.	.	8g\J	.	.	.	.	.
.	.	2r	.	2r	.	4f#X/	.	.	.	.	.
.	.	.	.	.	.	4dny/	-bo	-bo	.	.	.
2GG/	6	2r	.	2r	.	4e/	no-	no-	.	.	.
!	!	!	!	!	!	!LO:TX:t=P:problem:kreska pseudotaktowa	!	!	!	!	!
.	.	.	.	.	.	4d/	-men	-men	.	.	.
!LO:TX:t=P:problem: bc niewyraźne	!	!LO:TX:a:t=6:mod=	!	!LO:TX:a:t=10:mod=	!	!	!	!	!	!	!
2AA/	.	00.r	.	00.r	.	2c#X/	tú-	tu-	2r	.	.
!LO:TX:t=P:problem:kreska pseudotaktowa	!	!	!	!	!	!	!	!	!	!	!
1FF#X	6	.	.	.	.	1d	-úm	-um	2a\	et	Et
!	!	!	!	!	!	!	!	!	!LO:TX:t=P:problem:kreska pseudotaktowa	!	!
.	.	.	.	.	.	.	.	.	2a\	laú-	lau-
=52-	=52-	=52-	=52-	=52-	=52-	=52-	=52-	=52-	=52-	=52-	=52-
1GG	5:6	.	.	.	.	2d/	in	in	4b\	-da-	-da-
.	.	.	.	.	.	.	.	.	8dd\L	.	.
.	.	.	.	.	.	.	.	.	8cc\J	.	.
!	!	!	!	!	!	!LO:TX:t=P:problem:kreska pseudotaktowa	!	!	!	!	!
.	.	.	.	.	.	1e	ae-	ae-	4b\	.	.
.	.	.	.	.	.	.	.	.	4gny/	-bo	-bo
2Cny/	6	.	.	.	.	.	.	.	4a\	no-	no-
!	!	!	!	!	!	!	!	!	!LO:TX:t=P:problem:kreska pseudotaktowa	!	!
.	.	.	.	.	.	.	.	.	4g/	-men	-men
!LO:TX:t=P:problem:kreska pseudotaktowa	!	!	!	!	!	!	!	!	!	!	!
1.D	#	.	.	.	.	2.d/	-ter-	-ter-	2.f#X/	tú-	tu-
.	.	.	.	.	.	4e/	.	.	4g/	-úm	-um
.	.	.	.	.	.	4f#X/	.	.	4a\	jn	in
!	!	!	!	!	!	!LO:TX:t=P:problem:kreska pseudotaktowa	!	!	!LO:TX:t=P:problem:kreska pseudotaktowa	!	!
.	.	.	.	.	.	4g/	.	.	4b\	ae-	ae-
=53-	=53-	=53-	=53-	=53-	=53-	=53-	=53-	=53-	=53-	=53-	=53-
1AA	-	.	.	.	.	2.a\	.	.	2.cc\	-ter-	-ter-
.	.	.	.	.	.	4g/	.	.	4b\	.	.
2A\	6	.	.	.	.	4a\	.	.	4cc\	.	.
!	!	!	!	!	!	!LO:TX:t=P:problem:kreska pseudotaktowa	!	!	!LO:TX:t=P:problem:kreska pseudotaktowa	!	!
.	.	.	.	.	.	4b\	.	.	4dd\	.	.
2E\	6	0.r	.	00.r	.	4cc\	.	.	4ee\	.	.
.	.	.	.	.	.	8b\L	.	.	8dd\L	.	.
.	.	.	.	.	.	8a\J	.	.	8cc\J	.	.
2G\	.	.	.	.	.	4g/	.	.	4b\	.	.
.	.	.	.	.	.	4a\	.	.	4cc\	.	.
!	!	!	!	!	!	!LO:TX:t=P:problem:kreska pseudotaktowa	!	!	!LO:TX:t=P:problem:kreska pseudotaktowa	!	!
4GG/	.	.	.	.	.	[2b\	.	.	[2dd\	.	.
!LO:TX:t=P:problem:kreska pseudotaktowa	!	!	!	!	!	!	!	!	!	!	!
4AA/	.	.	.	.	.	.	.	.	.	.	.
!	!	!	!	!	!	!	!	!	!LO:LB:g=original	!	!
=54-	=54-	=54-	=54-	=54-	=54-	=54-	=54-	=54-	=54-	=54-	=54-
!	!	!LO:TX:t=P:problem:kreska pseudotaktowa	!	!	!	!	!	!	!	!	!
4BB/	5:6	.	.	.	.	4b\]	.	.	4dd\]	.	.
4C/	.	.	.	.	.	8a\L	.	.	8cc\L	.	.
.	.	.	.	.	.	8g\J	.	.	8b\J	.	.
*	*	*	*	*	*	*custos:f	*	*	*	*	*
!	!	!	!	!	!	!LO:LB:g=original	!	!	!	!	!
2D/	#	.	.	.	.	4f#X/	.	.	4a\	.	.
.	.	.	.	.	.	4g/	.	.	4b\	.	.
!LO:TX:t=P:problem:kreska pseudotaktowa	!	!	!	!	!	!LO:TX:t=P:problem:kreska pseudotaktowa	!	!	!LO:TX:t=P:problem:kreska pseudotaktowa	!	!
2AA/	-	.	.	.	.	2a\	.	.	2cc\	-núm	-num,
2BB/	.	2r	.	.	.	2d/	-núm	-num,	2.b\	jn	in
2C/	.	2r	.	.	.	4g/	jn	in	.	.	.
.	.	.	.	.	.	4g/	ae-	ae-	4a\	ae-	ae-
2D/	.	4a/	.	.	.	2f#X/	-ter-	-ter-	2a\	-ter-	-ter-
!	!	!LO:TX:t=P:problem:kreska pseudotaktowa	!	!	!	!	!	!	!	!	!
.	.	4a/	.	.	.	.	.	.	.	.	.
=55-	=55-	=55-	=55-	=55-	=55-	=55-	=55-	=55-	=55-	=55-	=55-
1GG	.	4b/	.	.	.	2g/	-núm	-num	2g/	-núm,	-num,
.	.	8dd\L	.	.	.	.	.	.	.	.	.
.	.	8ccny\J	.	.	.	.	.	.	.	.	.
.	.	4b/	.	.	.	2r	.	.	2r	.	.
.	.	4gny/	.	.	.	.	.	.	.	.	.
!LO:TX:t=P:problem:kreska pseudotaktowa	!	!	!	!	!	!LO:TX:t=P:problem:kreska pseudotaktowa	!	!	!LO:TX:t=P:problem:kreska pseudotaktowa	!	!
2C/	6	4a/	.	.	.	2r	.	.	2r	.	.
!	!	!LO:TX:t=P:problem:kreska pseudotaktowa	!	!	!	!	!	!	!	!	!
.	.	4g/	.	.	.	.	.	.	.	.	.
!LO:TX:t=P:problem:kreska pseudotaktowa	!	!	!	!	!	!	!	!	!	!	!
1.D	#	4f#X/	.	0.r	.	2r	.	.	2r	.	.
.	.	4dny/	.	.	.	.	.	.	.	.	.
.	.	2.dd\	.	.	.	2f#X/	et	et	2a\	et	et
!	!	!	!	!	!	!LO:TX:t=P:problem:kreska pseudotaktowa	!	!	!	!	!
.	.	.	.	.	.	2f#/	laú-	lau-	2a\	laú-	lau-
!	!	!LO:TX:t=P:problem:kreska pseudotaktowa	!	!	!	!	!	!	!	!	!
.	.	4cc\	.	.	.	.	.	.	.	.	.
!LO:LB:g=original	!	!	!	!LO:LB:g=original	!	!	!	!	!	!	!
=56-	=56-	=56-	=56-	=56-	=56-	=56-	=56-	=56-	=56-	=56-	=56-
!	!	!	!	!LO:TX:t=P:problem:kreska pseudotaktowa	!	!	!	!	!	!	!
1.GG	.	2b/	.	.	.	4g/	-da-	-da-	4b\	-da-	-da-
.	.	.	.	.	.	8b\L	.	.	8dd\L	.	.
.	.	.	.	.	.	8a\J	.	.	8cc\J	.	.
.	.	1gg	.	.	.	4g/	.	.	4b\	.	.
.	.	.	.	.	.	4d/	-bo	-bo	4g/	-bo	-bo
.	.	.	.	.	.	4g/	no-	no-	4b\	no-	no-
!	!	!	!	!	!	!LO:TX:t=P:problem:kreska pseudotaktowa	!	!	!LO:TX:t=P:problem:kreska pseudotaktowa	!	!
.	.	.	.	.	.	4g/	-men	-men	4b\	-men	-men
2D/	#	1.r	.	2dd\	.	2f#X/	tú-	tu-	4a\	tú-	tu-
.	.	.	.	.	.	.	.	.	4a\	-úm,	-um,
!LO:TX:t=P:problem:kreska pseudotaktowa	!	!	!	!	!	!	!	!	!	!	!
1BB	.	.	.	2dd\	.	1g	-úm	-um	2dd\	et	et
!	!	!	!	!LO:TX:t=P:problem:kreska pseudotaktowa	!	!	!	!	!LO:TX:t=P:problem:kreska pseudotaktowa	!	!
.	.	.	.	2gg\	.	.	.	.	2dd\	laú-	lau-
=57-	=57-	=57-	=57-	=57-	=57-	=57-	=57-	=57-	=57-	=57-	=57-
1C	.	2r	.	4ccny\	.	2r	.	.	4ee\	-da-	-da-
.	.	.	.	8ee\L	.	.	.	.	8gg\L	.	.
.	.	.	.	8dd\J	.	.	.	.	8ff\J	.	.
.	.	2r	.	4cc\	.	2r	.	.	4ee\	.	.
.	.	.	.	4g/	.	.	.	.	4cc\	-bo	-bo
!	!	!LO:TX:t=P:problem:kreska pseudotaktowa	!	!LO:TX:t=P:problem:kreska pseudotaktowa	!	!	!	!	!	!	!
2F#X\	6	2d/	.	2a/	.	4a\	jn	in	4dd\	no-	no-
!	!	!	!	!	!	!	!	!	!LO:TX:t=P:problem:kreska pseudotaktowa	!	!
.	.	.	.	.	.	4a\	ae-	ae-	4cc\	-men	-men
*	*	*	*	*	*	*	*	*	*custos:b	*	*
!LO:TX:t=P:problem:kreska pseudotaktowa	!	!	!	!	!	!	!	!	!LO:LB:g=original	!	!
1.G	.	1d	.	4b/	.	2.g/	-ter-	-ter-	2.b\	tú-	tu-
.	.	.	.	4cc\	.	.	.	.	.	.	.
.	.	.	.	2dd\	.	.	.	.	.	.	.
.	.	.	.	.	.	4a\	.	.	4cc\	-úm	-um
.	.	2d/	.	2gg\	.	4b\	.	.	4dd\	jn	in
!	!	!	!	!	!	!LO:TX:t=P:problem:kreska pseudotaktowa	!	!	!	!	!
!	!	!	!	!	!	!	!	!	!LO:TX:t=P:problem:kreska pseudotaktowa	!	!
.	.	.	.	.	.	4cc\	.	.	4ee\	ae-	ae-
*	*	*custos:d	*	*	*	*custos:dd	*	*	*	*	*
!	!	!LO:LB:g=original	!	!	!	!LO:LB:g=original	!	!	!	!	!
=58-	=58-	=58-	=58-	=58-	=58-	=58-	=58-	=58-	=58-	=58-	=58-
1D	.	2d/	.	2ffny\	.	4dd\	.	.	4ff\	-ter-	-ter-
.	.	.	.	.	.	4cc\	.	.	4ee\	.	.
.	.	2r	.	2aa\	.	4b\	.	.	4dd\	.	.
.	.	.	.	.	.	4a\	.	.	4cc\	.	.
!	!	!	!	!LO:TX:t=P:problem:kreska pseudotaktowa	!	!	!	!	!	!	!
2E\	# 4:3	4ee\	.	2ee\	.	2g#X/	.	.	2b\	.	.
!	!	!LO:TX:t=P:problem:kreska pseudotaktowa	!	!	!	!	!	!	!	!	!
.	.	4dd\	.	.	.	.	.	.	.	.	.
!LO:TX:t=P:problem:kreska pseudotaktowa	!	!	!	!	!	!	!	!	!	!	!
1.AA	#	2.cc#X\	.	2ee\	.	2a\	-núm	-num,	2a\	-núm	-num,
.	.	.	.	2r	.	2r	.	.	2r	.	.
.	.	4dd\	.	.	.	.	.	.	.	.	.
!	!	!	!	!	!	!	!	!	!LO:TX:t=P:problem:kreska pseudotaktowa	!	!
.	.	4ee\	.	4aa\	.	2r	.	.	2r	.	.
!	!	!LO:TX:t=P:problem:kreska pseudotaktowa	!	!	!	!	!	!	!	!	!
.	.	4cc#X\	.	4gg\	.	.	.	.	.	.	.
=59-	=59-	=59-	=59-	=59-	=59-	=59-	=59-	=59-	=59-	=59-	=59-
!	!	!	!	!	!	!LO:TX:t=P:problem:kreska pseudotaktowa	!	!	!	!	!
1.D	#	2dd\	.	2.ff#X\	.	1.r	.	.	2r	.	.
.	.	2.a/	.	.	.	.	.	.	2r	.	.
.	.	.	.	4gg\	.	.	.	.	.	.	.
.	.	.	.	4aa\	.	.	.	.	4dd\	no-	no-
!	!	!LO:TX:t=P:problem:kreska pseudotaktowa	!	!LO:TX:t=P:problem:kreska pseudotaktowa	!	!	!	!	!	!	!
.	.	4a/	.	4ff#X\	.	.	.	.	4cc\	-men	-men
!LO:TX:t=P:problem:kreska pseudotaktowa	!	!	!	!	!	!	!	!	!	!	!
1.G	.	4b/	.	2gg\	.	2r	.	.	2.b\	tú-	tu-
.	.	4a/	.	.	.	.	.	.	.	.	.
.	.	2g/	.	2.dd\	.	2r	.	.	.	.	.
.	.	.	.	.	.	.	.	.	4cc\	-úm	-um
.	.	1gg\	.	.	.	4gny/	no-	no-	4dd\	jn	in
!	!	!	!	!	!	!	!	!	!LO:TX:t=P:problem:kreska pseudotaktowa	!	!
.	.	.	.	4dd\	.	4fny/	-men	-men	4b\	ae-	ae-
=60-	=60-	=60-	=60-	=60-	=60-	=60-	=60-	=60-	=60-	=60-	=60-
1.C	.	.	.	1ee	.	2.e/	tú-	tu-	2cc\	-ter-	-ter-
!	!	!LO:TX:t=P:problem:kreska pseudotaktowa	!	!	!	!	!	!	!	!	!
.	.	1g	.	.	.	.	.	.	2cc\	-núm	-num,
.	.	.	.	.	.	4f/	-úm	-um	.	.	.
!	!	!	!	!LO:TX:t=P:problem:kreska pseudotaktowa	!	!	!	!	!	!	!
.	.	.	.	2ee\	.	4g/	jn	in	4cc\	no-	no-
!	!	!	!	!	!	!LO:TX:t=P:problem:kreska pseudotaktowa	!	!	!LO:TX:t=P:problem:kreska pseudotaktowa	!	!
.	.	.	.	.	.	4e/	ae-	ae-	4b\	-men	-men
*	*	*	*	*custos:gg	*	*	*	*	*	*	*
!	!	!	!	!LO:LB:g=original	!	!	!	!	!	!	!
1D	#	2r	.	2r	.	2.f#X/	-ter-	-ter-	2a\	tú-	tu-
.	.	2.dd\	.	2aa\	.	.	.	.	2a\	-úm	-um
.	.	.	.	.	.	4f#/	-núm	-num	.	.	.
!LO:TX:t=P:problem:kreska pseudotaktowa	!	!	!	!	!	!LO:TX:t=P:problem:kreska pseudotaktowa	!	!	!LO:TX:t=P:problem:kreska pseudotaktowa	!	!
2BB/	6	.	.	4gg\	.	2g/	jn	in	2dd\	jn	in
!	!	!	!	!LO:TX:t=P:problem:# above	!	!	!	!	!	!	!
.	.	4dd\	.	4ff#X\i	.	.	.	.	.	.	.
*	*	*	*	*	*	*	*	*	*custos:cc	*	*
!	!	!	!	!	!	!	!	!	!LO:LB:g=original	!	!
=61-	=61-	=61-	=61-	=61-	=61-	=61-	=61-	=61-	=61-	=61-	=61-
2C/	.	2g/	.	2ee\	.	2g/	ae-	ae-	(4cc\	ae-	ae-
.	.	.	.	.	.	.	.	.	4b\)	.	.
!	!	!	!	!	!	!	!	!	!LO:TX:t=P:problem:kreska pseudotaktowa	!	!
1D	4:3	2d/	.	2.dd\	.	2.g/	-ter-	-ter-	1a	-ter-	-ter-
!	!	!LO:TX:t=P:problem:kreska pseudotaktowa	!	!	!	!	!	!	!	!	!
.	.	2a/	.	.	.	.	.	.	.	.	.
!	!	!	!	!LO:TX:t=P:problem:kreska pseudotaktowa	!	!LO:TX:t=P:problem:kreska pseudotaktowa	!	!	!	!	!
.	.	.	.	4dd\	.	4f#X/	-núm	-num	.	.	.
!LO:TX:t=P:problem:kreska pseudotaktowa	!	!	!	!	!	!	!	!	!	!	!
1.GG	.	2.g/	.	1dd	.	2g/	.	.	2b\	-núm	-num,
.	.	.	.	.	.	2.g/	jn	in	2.b\	no-	no-
.	.	4a/	.	.	.	.	.	.	.	.	.
!	!	!LO:TX:t=P:problem:kreska pseudotaktowa	!	!	!	!	!	!	!	!	!
.	.	2b/	.	2dd\	.	.	.	.	.	.	.
!	!	!	!	!	!	!LO:TX:t=P:problem:kreska pseudotaktowa	!	!	!LO:TX:t=P:problem:kreska pseudotaktowa	!	!
.	.	.	.	.	.	4g/	ae-	ae-	4b\	-men	-men
*	*	*custos:cc	*	*	*	*	*	*	*	*	*
!	!	!LO:LB:g=original	!	!	!	!	!	!	!	!	!
=62-	=62-	=62-	=62-	=62-	=62-	=62-	=62-	=62-	=62-	=62-	=62-
2.AA/	# 6	1ccny	.	2a/	.	2.f#X/	-ter-	-ter-	2.a\	tú-	tu-
.	.	.	.	2aa\	.	.	.	.	.	.	.
4BB/	.	.	.	.	.	4f#/	-núm	-num	4g/	-úm	-um
!LO:TX:t=P:problem:kreska pseudotaktowa	!	!	!	!LO:TX:t=P:problem:kreska pseudotaktowa	!	!	!	!	!LO:TX:t=P:problem:kreska pseudotaktowa	!	!
2C/	.	2cc\	.	2ee\	.	2e/	jn	in	2g/	jn	in
*custos:AA	*	*	*	*	*	*	*	*	*	*	*
!LO:LB:g=original	!	!	!	!	!	!LO:LB:g=original	!	!	!	!	!
2AA/	.	2cc\	.	2ff#X\	.	2e/	ae-	ae-	2f#X/	ae-	ae-
!	!	!LO:TX:t=P:problem:kreska pseudotaktowa	!	!	!	!	!	!	!	!	!
1BB	.	1b	.	1ff#	.	(>2.e/	-ter-	-ter-	1f#	-ter-	-ter-
.	.	.	.	.	.	4d#X/)	.	.	.	.	.
=63||	=63||	=63||	=63||	=63||	=63||	=63||	=63||	=63||	=63||	=63||	=63||
*M2/1	*	*M2/1	*	*M2/1	*	*M2/1	*	*	*M2/1	*	*
*met(C|)	*	*met(C|)	*	*met(C|)	*	*met(C|)	*	*	*met(C|)	*	*
1E	-	2b/	.	2gg\	.	2e/	-núm,	-num.	2e/	-núm,	-num.
.	.	2r	.	2r	.	2r	.	.	2b\	Re-	Re-
!	!	!LO:TX:a:t=i0:mod=	!	!LO:TX:a:t=10:mod=	!	!	!	!	!	!	!
2.E\	6	00r	.	00r	.	1r	.	.	4.b\	-dem-	-dem-
.	.	.	.	.	.	.	.	.	8e/	-ptor	-ptor
!	!	!	!	!	!	!	!	!	!LO:TX:t=P:problem:kreska pseudotaktowa	!	!
.	.	.	.	.	.	.	.	.	2cc\	De-	De-
!LO:TX:t=P:problem:kreska pseudotaktowa	!	!	!	!	!	!	!	!	!	!	!
4F#X\	.	.	.	.	.	.	.	.	.	.	.
=64-	=64-	=64-	=64-	=64-	=64-	=64-	=64-	=64-	=64-	=64-	=64-
1G	.	.	.	.	.	2r	.	.	2b\	-ús	-us
.	.	.	.	.	.	4r	.	.	4r	.	.
.	.	.	.	.	.	8g/	Qúi	Qui	8b\	qúi	qui
!	!	!	!	!	!	!	!	!	!LO:TX:t=P:problem:kreska pseudotaktowa	!	!
!	!	!	!	!	!	!LO:TX:t=P:problem:kreska pseudotaktowa	!	!	!	!	!
.	.	.	.	.	.	8g/	es	es	8b\	es	es
*	*	*	*	*	*	*	*	*	*custos:a	*	*
!	!	!	!	!	!	!	!	!	!LO:LB:g=original	!	!
4d\	#	.	.	.	.	4f#X/	vi-	vi-	4a\	vi-	vi-
4B\	# 3	.	.	.	.	8d#X/	-ta	-ta	8b\	-ta	-ta
.	.	.	.	.	.	8d#/	vi-	vi-	8b\	vi-	vi-
!LO:TX:t=P:problem:kreska pseudotaktowa	!	!	!	!	!	!	!	!	!	!	!
2cny\	7:6	.	.	.	.	4.e/	-úen-	-ven-	4.b\	-úen-	-ven-
!	!	!	!	!	!	!LO:TX:t=P:problem:kreska pseudotaktowa	!	!	!LO:TX:t=P:problem:kreska pseudotaktowa	!	!
.	.	.	.	.	.	8e/	-ti-	-ti-	8a\	-ti-	-ti-
=65-	=65-	=65-	=65-	=65-	=65-	=65-	=65-	=65-	=65-	=65-	=65-
!LO:MO:mod=!null:null	!	!	!	!	!	!	!	!	!	!	!
!LO:N:acc=#	!	!	!	!	!	!	!	!	!	!	!
4BnX\	5	.	.	.	.	4d#X/	-úm	-um	4b\	-úm	-um
!LO:MO:mod=!null:null	!	!	!	!	!	!	!	!	!	!	!
!LO:N:acc=#	!	!	!	!	!	!	!	!	!	!	!
4BBnX/	.	.	.	.	.	8r	.	.	8r	.	.
.	.	.	.	.	.	8b\	et	et	8dd\	et	et
4C/	6:5	.	.	.	.	8a\	ſa-	ſa-	8cc\	ſa-	ſa-
.	.	.	.	.	.	8g/	-l(us)	-lus	8b\	-l(us)	-lus
!LO:TX:t=P:problem:kreska pseudotaktowa	!	!	!	!	!	!	!	!	!	!	!
4C#X/	.	.	.	.	.	8g/	Mo-	mo-	8b\	mo-	mo-
!	!	!	!	!	!	!LO:TX:t=P:problem:kreska pseudotaktowa	!	!	!LO:TX:t=P:problem:kreska pseudotaktowa	!	!
.	.	.	.	.	.	8g/	-ri-	-ri-	8a\	-ri-	-ri-
2D/	4:3	00r	.	00r	.	(4.g/	-en-	-en-	4.a\	-en-	-en-
.	.	.	.	.	.	8f#X/)	-ti-	-ti-	8a\	-ti-	-ti-
!	!	!	!	!	!	!LO:TX:t=P:problem:kreska pseudotaktowa	!	!	!	!	!
2GG/	.	.	.	.	.	2g/	-úm	-um,	2b\	-úm	-um,
!	!	!	!	!	!	!LO:LB:g=original	!	!	!	!	!
=66-	=66-	=66-	=66-	=66-	=66-	=66-	=66-	=66-	=66-	=66-	=66-
2G\	.	.	.	.	.	4r	.	.	1r	.	.
.	.	.	.	.	.	8b\	qúi	qui	.	.	.
.	.	.	.	.	.	8b\	es	es	.	.	.
4A\	#	.	.	.	.	4cc#X\	vi-	vi-	.	.	.
!LO:TX:t=P:problem:kreska pseudotaktowa	!	!	!	!	!	!	!	!	!	!	!
4Bny\	#	.	.	.	.	8dd#X\	-ta	-ta	.	.	.
!	!	!	!	!	!	!LO:TX:t=P:problem:kreska pseudotaktowa	!	!	!	!	!
.	.	.	.	.	.	8dd#\	vi-	vi-	.	.	.
2c\	.	.	.	.	.	8.ee\	-úen-	-ven-	2r	.	.
.	.	.	.	.	.	16ee\	-ti-	-ti-	.	.	.
.	.	.	.	.	.	4ee\	-úm	-um,	.	.	.
2.c\	#	.	.	.	.	4r	.	.	4r	.	.
.	.	.	.	.	.	8e/	qúi	qui	8g/	qúi	qui
!	!	!	!	!	!	!LO:TX:t=P:problem:kreska pseudotaktowa	!	!	!LO:TX:t=P:problem:kreska pseudotaktowa	!	!
.	.	.	.	.	.	8e/	es	es	8g/	es	es
=67-	=67-	=67-	=67-	=67-	=67-	=67-	=67-	=67-	=67-	=67-	=67-
.	.	.	.	.	.	4f#X/	vi-	vi-	4a\	vi-	vi-
4B\	6 4	.	.	.	.	8g/	-ta	-ta	8b\	-ta	-ta
.	.	.	.	.	.	8g/	vi-	vi-	8b\	vi-	vi-
4A\	6	.	.	.	.	4a\	-úen-	-ven-	4.cc\	-úen-	-ven-
!LO:TX:t=P:problem:kreska pseudotaktowa	!	!	!	!	!	!LO:TX:t=P:problem:kreska pseudotaktowa	!	!	!	!	!
4d\	7	.	.	.	.	4f#X/	-ti-	-ti-	.	.	.
!	!	!	!	!	!	!	!	!	!LO:TX:t=P:problem:kreska pseudotaktowa	!	!
.	.	.	.	.	.	.	.	.	8cc\	-ti-	-ti-
*custos:G	*	*	*	*	*	*	*	*	*custos:b	*	*
!LO:LB:g=original	!	!	!	!	!	!	!	!	!LO:LB:g=original	!	!
2G\	.	0r	.	0r	.	4g/	-úm	-um	4b\	-úm	-um
.	.	.	.	.	.	8r	.	.	8r	.	.
.	.	.	.	.	.	8g/	et	et	8b\	et	et
!LO:TX:t=P:problem:kreska pseudotaktowa	!	!	!	!	!	!	!	!	!	!	!
2A\	# 6	.	.	.	.	4.f#X/	ſa-	ſa-	4.a\	ſa-	ſa-
!	!	!	!	!	!	!	!	!	!LO:TX:t=P:problem:kreska pseudotaktowa	!	!
.	.	.	.	.	.	8e/	-l(us)	-lus	8a\	-l(us)	-lus
*	*	*	*	*	*	*custos:d	*	*	*	*	*
!	!	!	!	!	!	!LO:LB:g=original	!	!	!	!	!
=68-	=68-	=68-	=68-	=68-	=68-	=68-	=68-	=68-	=68-	=68-	=68-
!	!	!LO:TX:t=P:problem:kreska pseudotaktowa	!	!LO:TX:t=P:problem:kreska pseudotaktowa	!	!	!	!	!	!	!
1B	7:6:# #3:4:3	.	.	.	.	4d#X/	mo-	mo-	4.a\	mo-	mo-
.	.	.	.	.	.	4e/	-ri-	-ri-	.	.	.
.	.	.	.	.	.	.	.	.	8g/	-ri-	-ri-
.	.	.	.	.	.	4.e/	-en-	-en-	4.f#X/	-en-	-en-
.	.	.	.	.	.	8d#X/	-ti-	-ti-	8f#/	-ti-	-ti-
2.c\	6 4	4r	.	4r	.	2e/	-úm	-um.	2e/	-úm	-um.
.	.	8ee\L	.	8gg\L	.	.	.	.	.	.	.
.	.	8ee\J	.	8gg\J	.	.	.	.	.	.	.
.	.	4ff#X\	.	4aa\	.	2r	.	.	2r	.	.
!LO:TX:t=P:problem:kreska pseudotaktowa	!	!LO:TX:t=P:problem:kreska pseudotaktowa	!	!LO:TX:t=P:problem:kreska pseudotaktowa	!	!	!	!	!	!	!
4B\	.	4gg\	.	4bb\	.	.	.	.	.	.	.
=69-	=69-	=69-	=69-	=69-	=69-	=69-	=69-	=69-	=69-	=69-	=69-
!	!	!	!	!	!	!LO:TX:b:t=5:mod=	!	!	!LO:TX:b:t=5:mod=	!	!
4A\	.	4aa\	.	4.ccc\	.	00r	.	.	00r	.	.
4d\	7	4ff#X\	.	.	.	.	.	.	.	.	.
.	.	.	.	8ccc\	.	.	.	.	.	.	.
2G\	.	4gg\	.	4bb\	.	.	.	.	.	.	.
.	.	8dd\L	.	8bb\L	.	.	.	.	.	.	.
!	!	!	!	!LO:TX:t=P:problem:kreska pseudotaktowa	!	!	!	!	!	!	!
!	!	!LO:TX:t=P:problem:kreska pseudotaktowa	!	!	!	!	!	!	!	!	!
.	.	8dd\J	.	8bb\J	.	.	.	.	.	.	.
*	*	*	*	*custos:aa	*	*	*	*	*	*	*
!	!	!	!	!LO:LB:g=original	!	!	!	!	!	!	!
2Cny/	6:5	4cc\	.	4aa\	.	.	.	.	.	.	.
.	.	4b/	.	4gg\	.	.	.	.	.	.	.
!LO:TX:t=P:problem:kreska pseudotaktowa	!	!	!	!	!	!	!	!	!	!	!
2D/	4:3	4.a/	.	4.gg\	.	.	.	.	.	.	.
!	!	!LO:TX:t=P:problem:kreska pseudotaktowa	!	!LO:TX:t=P:problem:kreska pseudotaktowa	!	!	!	!	!	!	!
.	.	8a/	.	8ff#X\	.	.	.	.	.	.	.
=70-	=70-	=70-	=70-	=70-	=70-	=70-	=70-	=70-	=70-	=70-	=70-
!	!	!	!	!	!	!LO:TX:t=P:problem:kreska pseudotaktowa	!	!	!	!	!
2.G\	6 4	4b/	.	4gg\	.	.	.	.	.	.	.
.	.	8b/L	.	8dd\L	.	.	.	.	.	.	.
.	.	8b/J	.	8dd\J	.	.	.	.	.	.	.
.	.	4cc#X\	.	4ee\	.	.	.	.	.	.	.
!	!	!	!	!LO:TX:t=P:problem:kreska pseudotaktowa	!	!	!	!	!	!	!
4F#X\	6	4dd\	.	4ff#X\	.	.	.	.	.	.	.
*	*	*custos:ee	*	*	*	*	*	*	*	*	*
!	!	!LO:LB:g=original	!	!	!	!	!	!	!	!	!
4E\	.	4ee\	.	4.gg\	.	.	.	.	.	.	.
4A\	7	4cc#X\	.	.	.	.	.	.	.	.	.
.	.	.	.	8gg\	.	.	.	.	.	.	.
!LO:TX:t=P:problem:kreska pseudotaktowa	!	!	!	!	!	!	!	!	!	!	!
2D/	#	4dd\	.	4ff#X\	.	.	.	.	.	.	.
.	.	8dd\L	.	8aa\L	.	.	.	.	.	.	.
!	!	!LO:TX:t=P:problem:kreska pseudotaktowa	!	!LO:TX:t=P:problem:kreska pseudotaktowa	!	!	!	!	!	!	!
.	.	8cc#\J	.	8aa\J	.	.	.	.	.	.	.
=71-	=71-	=71-	=71-	=71-	=71-	=71-	=71-	=71-	=71-	=71-	=71-
!	!	!	!	!	!	!	!	!	!LO:TX:t=P:problem:kreska pseudotaktowa	!	!
4G\	.	8b\L	.	4.gg\	.	1r	.	.	1r	.	.
.	.	8ccny\J	.	.	.	.	.	.	.	.	.
4D/	.	2dd\	.	.	.	.	.	.	.	.	.
.	.	.	.	8ff#X\	.	.	.	.	.	.	.
2A\	4:3	.	.	4.ee\	.	.	.	.	.	.	.
!	!	!LO:TX:t=P:problem:kreska pseudotaktowa	!	!	!	!	!	!	!	!	!
.	.	4cc#X\	.	.	.	.	.	.	.	.	.
!	!	!	!	!LO:TX:t=P:problem:kreska pseudotaktowa	!	!	!	!	!	!	!
.	.	.	.	8ee\	.	.	.	.	.	.	.
2D/	#	2dd\	.	2ff#X\	.	4r	.	.	4r	.	.
.	.	.	.	.	.	4fny/	et	Et	4a\	et	Et
!LO:TX:t=P:problem:kreska pseudotaktowa	!	!	!	!	!	!	!	!	!	!	!
2G\	.	4r	.	4r	.	4g/	ſa-	ſa-	4b\	ſa-	ſa-
!	!	!LO:TX:t=P:problem:kreska pseudotaktowa	!	!LO:TX:t=P:problem:kreska pseudotaktowa	!	!LO:TX:t=P:problem:kreska pseudotaktowa	!	!	!LO:TX:t=P:problem:kreska pseudotaktowa	!	!
.	.	4b/	.	4dd\	.	4g/	-l(us)	-lus,	4b\	-l(us)	-lus,
*custos:C	*	*	*	*	*	*	*	*	*	*	*
!LO:LB:g=original	!	!	!	!	!	!	!	!	!	!	!
=72-	=72-	=72-	=72-	=72-	=72-	=72-	=72-	=72-	=72-	=72-	=72-
2C/	.	4ccny\	.	4ee\	.	4r	.	.	4r	.	.
.	.	8cc\L	.	8ee\L	.	8r	.	.	8r	.	.
.	.	8cc\J	.	8gg\J	.	8e/	et	et	8g/	et	et
!	!	!LO:SIC:o=2cc\	!	!LO:TX:t=P:problem:kreska pseudotaktowa	!	!	!	!	!	!	!
!	!	!LO:TX:t=P:problem:kreska pseudotaktowa	!	!	!	!	!	!	!	!	!
[2AA/	.	[2cc\	.	[2aa\	.	4.a\	ſa-	ſa-	4.cc\	ſa-	ſa-
!	!	!	!	!	!	!LO:TX:t=P:problem:kreska pseudotaktowa	!	!	!LO:TX:t=P:problem:kreska pseudotaktowa	!	!
.	.	.	.	.	.	8g/	-l(us)	-lus	8b\	-l(us)	-lus
*	*	*	*	*custos:aa	*	*	*	*	*	*	*
!LO:TX:t=P:problem:kreska pseudotaktowa	!	!LO:SIC:o=1cc	!	!LO:LB:g=original	!	!	!	!	!	!	!
1AA]	8:7 #6:5	1cc]	.	4aa\]	.	2f#X/	mo-	mo-	2a\	mo-	mo-
.	.	.	.	4bb\	.	.	.	.	.	.	.
!	!	!	!	!LO:TX:t=P:problem:kreska pseudotaktowa	!	!	!	!	!	!	!
.	.	.	.	[2ccc\	.	2e/	-ri-	-ri-	2g/	-ri-	-ri-
=73-	=73-	=73-	=73-	=73-	=73-	=73-	=73-	=73-	=73-	=73-	=73-
1BBny	4:3	2r	.	4ccc\]	.	2e/	-en-	-en-	2.f#X/	-en-	-en-
.	.	.	.	4bb\	.	.	.	.	.	.	.
.	.	2b/	.	4.bb\	.	2d#X/	-ti-	-ti-	.	.	.
.	.	.	.	.	.	.	.	.	4f#/	-ti-	-ti-
.	.	.	.	8aa\	.	.	.	.	.	.	.
!LO:SIC:o=1El	!	!LO:SIC:o=1bl	!	!LO:SIC:o=1gg#Xl	!	!LO:SIC:o=1el	!	!	!LO:SIC:o=1g#Xl	!	!
1El;	.	1bl;	.	1gg#l;	.	1el;	-úm	-um.	1g#l;	-úm	-um.
!LO:MO:mod===	!	!LO:MO:mod===	!	!LO:MO:mod===	!	!LO:MO:mod===	!LO:MO:mod===	!LO:MO:mod===	!LO:MO:mod===	!LO:MO:mod===	!LO:MO:mod===
==;;	==	==;;	==	==;;	==	==;;	==;;	==;;	==;;	==;;	==;;
*-	*-	*-	*-	*-	*-	*-	*-	*-	*-	*-	*-
!!!RDF**kern: > = above
!!!RDF**kern: < = below
!!!RDF**kern: l = terminal long
!!LO:MO:ori
!!!RDF**kern: i = editorial accidental
!!LO:MO:end
!!!system-decoration: [(g1)][(g2)](s5)
!!!filter-modern: shed -e "s/:t=P:/:T=P:/L"
!!!filter-modern: shed -e "s/-//B"
!!!filter-modern: shed -e "s/^(\d+[\/\\]right)/$1yy/I; s/^(\d+[\/\\]left)/$1yy/I"
!!!filter-modern: shed -e "s/^custos:/Xcustos:/I"
!!!filter-modern: shed -e "s/yy//"
!!!filter-modern: shed -k -e "s/\(y(?!y)/(/"
!!!filter-modern: shed -k -e "s/ny//D"
!!!filter-modern: shed -k -e "s/nX//D"
!!!filter-modern: shed -e "s/#y/#/D"
!!!filter-modern: shed -e "s/#X/#/D"
!!!filter-modern: shed -e "s/-y/-/D"
!!!filter-modern: shed -k -e "s/([\(\)\[\]])[><]/$1/g"
!!!filter-modern: shed -k -e "s/([()[]_])[><]/$1/g"
!!!filter-modern: tie -s
!!!filter-modern: shed -e "s/^(X?)rep$/$1REP/I"
!!!filter-modern: shed -k -e "s/^(X?)tuplet/$1TUPLET/I"
!!!filter-modern: shed -e "s/LO:DY:(a|b|rj)/LO:dy:$1/L"
!!!filter-modern: shed -e "s/LO:HP:(a|b)/LO:hp:$1/L"
!!!filter-modern: shed -k -e "s/r[a-gA-G]+/r/D"
!!!filter-modern: shed -k -e "s/([^a-gA-Gn#-])[<>]/$1/g"
!!!filter-modern: sic -sq
!!!filter-modern: autostem -r
!!!filter-modern: modori -m
!!!filter-modern: humtr -p
!!!ENC: Andrzej Gręziak
!!!END: 2021-01-27
!!!EED: Urszula Świątek
!!!EEV: 2022-02-22
!!!ENC-modern: Krzysztof Stępień
!!!END-modern: 2022-11-16
